%
O00331 (Body)
(Using high feed G1 F500. instead of G0.)
(T2 D=0.25 CR=0. - ZMIN=0.3704 - flat end mill)
(T4 D=0.5 CR=0. - ZMIN=0.7 - flat end mill)
(T5 D=0.25 CR=0. TAPER=90deg - ZMIN=0.8375 - spot drill)
N10 G90 G17
N15 G20
N20 G53 G0 Z0.

(Face3)
N25 T4 M6
N30 S6000 M3
N35 G54
N40 G17 G90
N45 M8
N50 G1 X0.325 Y-1.3695 F500.
N55 G0 G43 Z1.605 H4
N60 T2
N65 G0 Z1.205
N70 G1 Z0.98 F89.4
N75 G18 G3 X0.275 Z0.93 I-0.05 K0.
N80 G1 X0.
N85 X-3.
N90 G17 G2 Y-0.9937 I0. J0.1879
N95 G1 X0.
N100 G3 Y-0.618 I0. J0.1879
N105 G1 X-3.
N110 G2 Y-0.2423 I0. J0.1879
N115 G1 X0.
N120 G18 G2 X0.05 Z0.98 I0. K0.05
N125 G0 Z1.605

(Adaptive1)
N130 G17
N135 G1 X0.3184 Y-1.5144 F500.
N140 G0 Z1.605
N145 Z1.205
N150 Z0.8
N155 G1 Z0.75 F89.4
N160 X0.3181 Y-1.5143 Z0.7444
N165 X0.3172 Y-1.5141 Z0.7389
N170 X0.3157 Y-1.5137 Z0.7335
N175 X0.3136 Y-1.5131 Z0.7283
N180 X0.311 Y-1.5125 Z0.7234
N185 X0.3078 Y-1.5117 Z0.7188
N190 X0.3042 Y-1.5107 Z0.7147
N195 X0.3001 Y-1.5097 Z0.7109
N200 X0.2957 Y-1.5086 Z0.7077
N205 X0.291 Y-1.5073 Z0.705
N210 X0.2859 Y-1.5061 Z0.7028
N215 X0.2807 Y-1.5047 Z0.7013
N220 X0.2754 Y-1.5033 Z0.7003
N225 X0.2699 Y-1.502 Z0.7
N230 G3 X0.2505 Y-1.4992 I-0.0226 J-0.0883
N235 G1 X0.2451 F92.4
N240 X0.1974 Y-1.5089
N245 X0.1494 Y-1.5168
N250 X0.1012 Y-1.5231
N255 X0.073 Y-1.5261
N260 X0.058 Y-1.5287
N265 X0.0433 Y-1.5333
N270 X0.0294 Y-1.5397
N275 X0.0165 Y-1.5479
N280 X-0.0097 Y-1.5665
N285 X-0.0328 Y-1.5815
N290 X-0.0624 Y-1.5965
N295 X-0.0689 Y-1.5995
N300 X-0.0839 Y-1.6046
N305 X-0.0989 Y-1.6091
N310 X-0.1289 Y-1.6157
N315 X-0.1588 Y-1.6214
N320 X-0.1738 Y-1.6231
N325 X-0.1888 Y-1.6244
N330 X-0.2038 Y-1.6249
N335 X-2.7962
N340 X-2.8112 Y-1.6244
N345 X-2.8262 Y-1.6231
N350 X-2.8412 Y-1.6214
N355 X-2.8711 Y-1.6157
N360 X-2.9011 Y-1.6091
N365 X-2.9161 Y-1.6046
N370 X-2.9311 Y-1.5995
N375 X-2.946 Y-1.5922
N380 X-2.9672 Y-1.5815
N385 X-2.991 Y-1.566
N390 X-3.0116 Y-1.5515
N395 X-3.0321 Y-1.5365
N400 X-3.0483 Y-1.5215
N405 X-3.062 Y-1.5066
N410 X-3.0837 Y-1.4766
N415 X-3.0959 Y-1.4587
N420 X-3.1036 Y-1.4466
N425 X-3.1119 Y-1.4317
N430 X-3.1194 Y-1.4167
N435 X-3.1261 Y-1.4017
N440 X-3.1311 Y-1.3867
N445 X-3.1351 Y-1.3717
N450 X-3.1416 Y-1.3418
N455 X-3.1472 Y-1.3118
N460 X-3.1497 Y-1.2818
N465 X-3.15 Y-1.147
N470 X-3.1498 Y-1.132
N475 X-3.1484 Y-1.1021
N480 X-3.1439 Y-1.0721
N485 X-3.1383 Y-1.0421
N490 X-3.1342 Y-1.0272
N495 X-3.1295 Y-1.0122
N500 X-3.1259 Y-1.003
N505 X-3.1182 Y-0.9836
N510 X-3.1041 Y-0.9371
N515 X-3.0929 Y-0.8897
N520 X-3.0841 Y-0.8419
N525 X-3.077 Y-0.7937
N530 X-3.0715 Y-0.7454
N535 X-3.067 Y-0.6969
N540 X-3.0635 Y-0.6484
N545 X-3.0619 Y-0.622
N550 X-3.0622 Y-0.605
N555 X-3.0649 Y-0.5883
N560 X-3.07 Y-0.5721
N565 X-3.0774 Y-0.5569
N570 X-3.0906 Y-0.5328
N575 X-3.098 Y-0.5178
N580 X-3.105 Y-0.5028
N585 X-3.1112 Y-0.4878
N590 X-3.1159 Y-0.4728
N595 X-3.12 Y-0.4579
N600 X-3.1259 Y-0.4267
N605 X-3.1301 Y-0.3979
N610 X-3.1314 Y-0.368
N615 X-3.1316 Y-0.2331
N620 X-3.1313 Y-0.2182
N625 X-3.1288 Y-0.1882
N630 X-3.1232 Y-0.1582
N635 X-3.1167 Y-0.1283
N640 X-3.1109 Y-0.1088
N645 X-3.1073 Y-0.0983
N650 X-3.1012 Y-0.0833
N655 X-3.0941 Y-0.0683
N660 X-3.0809 Y-0.047
N665 X-3.0655 Y-0.0234
N670 X-3.0509 Y-0.0032
N675 X-3.0436 Y0.0066
N680 X-3.0299 Y0.0215
N685 X-3.0137 Y0.0365
N690 X-2.994 Y0.0515
N695 X-2.961 Y0.0735
N700 X-2.9311 Y0.0912
N705 X-2.9161 Y0.0977
N710 X-2.9011 Y0.1037
N715 X-2.8711 Y0.1119
N720 X-2.8412 Y0.118
N725 X-2.8112 Y0.1228
N730 X-2.7962 Y0.1242
N735 X-2.7662 Y0.125
N740 X-0.2338
N745 X-0.2038 Y0.1233
N750 X-0.1888 Y0.1212
N755 X-0.1588 Y0.1157
N760 X-0.1385 Y0.1114
N765 X-0.1289 Y0.1091
N770 X-0.1139 Y0.1045
N775 X-0.0989 Y0.0993
N780 X-0.0689 Y0.085
N785 X-0.039 Y0.066
N790 X-0.009 Y0.045
N795 X0.002 Y0.0365
N800 X0.021 Y0.0181
N805 X0.032 Y0.0066
N810 X0.0537 Y-0.0234
N815 X0.0735 Y-0.0534
N820 X0.082 Y-0.0683
N825 X0.0895 Y-0.0833
N830 X0.0959 Y-0.0989
N835 X0.1008 Y-0.1133
N840 X0.1051 Y-0.1283
N845 X0.1116 Y-0.1582
N850 X0.1172 Y-0.1882
N855 X0.1197 Y-0.2182
N860 X0.1199 Y-0.2631
N865 X0.1198 Y-0.2781
N870 X0.1193 Y-0.2931
N875 X0.116 Y-0.323
N880 X0.1102 Y-0.353
N885 X0.1033 Y-0.383
N890 X0.0922 Y-0.4303
N895 X0.0835 Y-0.4782
N900 X0.0767 Y-0.5264
N905 X0.0712 Y-0.5747
N910 X0.0669 Y-0.6232
N915 X0.0634 Y-0.6717
N920 X0.0607 Y-0.7203
N925 X0.0585 Y-0.7689
N930 X0.0553 Y-0.8661
N935 X0.0535 Y-0.9566
N940 X0.0541 Y-0.9716
N945 X0.0568 Y-0.9863
N950 X0.0612 Y-1.0006
N955 X0.0675 Y-1.0143
N960 X0.0755 Y-1.027
N965 X0.0959 Y-1.0572
N970 X0.1109 Y-1.0818
N975 X0.1138 Y-1.0871
N980 X0.1273 Y-1.117
N985 X0.1363 Y-1.147
N990 X0.1423 Y-1.177
N995 X0.1473 Y-1.2069
N1000 X0.1488 Y-1.2219
N1005 X0.15 Y-1.2519
N1010 X0.1497 Y-1.2818
N1015 X0.1472 Y-1.3118
N1020 X0.1409 Y-1.3455
N1025 X0.1351 Y-1.3717
N1030 X0.1311 Y-1.3867
N1035 X0.1259 Y-1.4023
N1040 X0.1194 Y-1.4167
N1045 X0.1109 Y-1.4338
N1050 X0.1036 Y-1.4466
N1055 X0.0939 Y-1.4616
N1060 X0.0809 Y-1.4805
N1065 X0.0765 Y-1.4866
N1070 G3 X0.069 Y-1.5046 I0.0415 J-0.0278 F89.4
N1075 G1 X0.0679 Y-1.5101 Z0.7003
N1080 X0.0668 Y-1.5155 Z0.7013
N1085 X0.0658 Y-1.5208 Z0.7028
N1090 X0.0647 Y-1.5259 Z0.705
N1095 X0.0638 Y-1.5307 Z0.7077
N1100 X0.0629 Y-1.5352 Z0.7109
N1105 X0.0621 Y-1.5393 Z0.7147
N1110 X0.0613 Y-1.5429 Z0.7188
N1115 X0.0607 Y-1.5461 Z0.7234
N1120 X0.0602 Y-1.5488 Z0.7283
N1125 X0.0597 Y-1.5509 Z0.7335
N1130 X0.0594 Y-1.5524 Z0.7389
N1135 X0.0592 Y-1.5533 Z0.7444
N1140 Y-1.5536 Z0.75
N1145 G0 Z1.205
N1150 G1 X0.1519 Y-0.3337 F500.
N1155 G0 Z0.8
N1160 G1 Z0.75 F89.4
N1165 X0.1517 Y-0.3339 Z0.7444
N1170 X0.151 Y-0.3346 Z0.7389
N1175 X0.1498 Y-0.3356 Z0.7335
N1180 X0.1482 Y-0.337 Z0.7283
N1185 X0.1461 Y-0.3388 Z0.7234
N1190 X0.1437 Y-0.3409 Z0.7188
N1195 X0.1409 Y-0.3434 Z0.7147
N1200 X0.1378 Y-0.3462 Z0.7109
N1205 X0.1343 Y-0.3492 Z0.7077
N1210 X0.1306 Y-0.3524 Z0.705
N1215 X0.1267 Y-0.3558 Z0.7028
N1220 X0.1227 Y-0.3594 Z0.7013
N1225 X0.1185 Y-0.363 Z0.7003
N1230 X0.1143 Y-0.3667 Z0.7
N1235 G3 X0.1033 Y-0.383 I0.0261 J-0.0297
N1240 G1 X0.0959 Y-0.4049 F92.4
N1245 X0.093 Y-0.4129
N1250 X0.0809 Y-0.4366
N1255 X0.0776 Y-0.4429
N1260 X0.0659 Y-0.4621
N1265 X0.0509 Y-0.4849
N1270 X0.036 Y-0.5044
N1275 X0.0252 Y-0.5178
N1280 X0.021 Y-0.5221
N1285 X0.0011 Y-0.5438
N1290 X-0.0141 Y-0.5633
N1295 X-0.0305 Y-0.5882
N1300 X-0.0478 Y-0.6197
N1305 X-0.066 Y-0.6603
N1310 X-0.0822 Y-0.7062
N1315 X-0.0953 Y-0.753
N1320 X-0.1055 Y-0.8006
N1325 X-0.1065 Y-0.8082
N1330 X-0.1076 Y-0.8262
N1335 X-0.1059 Y-0.844
N1340 X-0.1015 Y-0.8614
N1345 X-0.0944 Y-0.8779
N1350 X-0.085 Y-0.8931
N1355 X-0.0733 Y-0.9067
N1360 X-0.0596 Y-0.9183
N1365 X-0.0444 Y-0.9277
N1370 X-0.039 Y-0.9305
N1375 X-0.024 Y-0.9398
N1380 X-0.0053 Y-0.9523
N1385 X0.0154 Y-0.9672
N1390 G3 X0.0333 Y-0.9749 I0.0284 J0.0412 F89.4
N1395 X0.0937 Y-0.9276 I0.0104 J0.0489 F92.4
N1400 G1 X0.1048 Y-0.5604
N1405 G3 X0.0376 Y-0.512 I-0.05 J0.0015
N1410 X0.021 Y-0.5221 I0.0172 J-0.047 F89.4
N1415 G1 X0.0102 Y-0.5328 F92.4
N1420 X-0.009 Y-0.5485
N1425 X-0.0504 Y-0.5777
N1430 X-0.0689 Y-0.589
N1435 X-0.0839 Y-0.5959
N1440 X-0.1044 Y-0.6066
N1445 X-0.1182 Y-0.6152
N1450 X-0.1338 Y-0.6269
N1455 X-0.149 Y-0.6403
N1460 X-0.1631 Y-0.6549
N1465 X-0.1761 Y-0.6708
N1470 X-0.1877 Y-0.6874
N1475 X-0.1977 Y-0.7046
N1480 X-0.2064 Y-0.7228
N1485 X-0.2134 Y-0.7409
N1490 X-0.219 Y-0.7602
N1495 X-0.2229 Y-0.7789
N1500 X-0.2254 Y-0.7987
N1505 X-0.2247 Y-0.8155
N1510 X-0.221 Y-0.8319
N1515 X-0.2144 Y-0.8474
N1520 X-0.2053 Y-0.8615
N1525 X-0.1937 Y-0.8737
N1530 X-0.1802 Y-0.8837
N1535 X-0.1652 Y-0.8912
N1540 X-0.149 Y-0.8959
N1545 X-0.1289 Y-0.8998
N1550 X-0.1057 Y-0.9054
N1555 G3 X-0.0861 Y-0.9055 I0.01 J0.049 F89.4
N1560 X-0.0462 Y-0.8636 I-0.0095 J0.0491 F92.4
N1565 G1 X-0.0151 Y-0.6492
N1570 G3 X-0.0648 Y-0.592 I-0.0495 J0.0072
N1575 X-0.0839 Y-0.5959 I0.0002 J-0.05 F89.4
N1580 G1 X-0.0989 Y-0.6028 F92.4
N1585 X-0.1139 Y-0.608
N1590 X-0.1289 Y-0.6124
N1595 X-0.1588 Y-0.6195
N1600 X-0.1746 Y-0.6227
N1605 X-0.1888 Y-0.6251
N1610 X-0.1941 Y-0.6261
N1615 X-0.2045 Y-0.629
N1620 X-0.2153 Y-0.6329
N1625 X-0.2266 Y-0.6381
N1630 X-0.2385 Y-0.6447
N1635 X-0.2502 Y-0.6526
N1640 X-0.2622 Y-0.6621
N1645 X-0.2727 Y-0.672
N1650 X-0.2832 Y-0.6834
N1655 X-0.2922 Y-0.695
N1660 X-0.3007 Y-0.708
N1665 X-0.3079 Y-0.7213
N1670 X-0.3141 Y-0.7353
N1675 X-0.3193 Y-0.7499
N1680 X-0.3231 Y-0.7645
N1685 X-0.3259 Y-0.7801
N1690 X-0.3274 Y-0.795
N1695 X-0.3276 Y-0.8111
N1700 X-0.3253 Y-0.826
N1705 X-0.3203 Y-0.8403
N1710 X-0.3127 Y-0.8534
N1715 X-0.303 Y-0.8649
N1720 X-0.2912 Y-0.8744
N1725 X-0.278 Y-0.8817
N1730 X-0.2636 Y-0.8864
N1735 X-0.2487 Y-0.8884
N1740 X-0.1888 Y-0.891
N1745 G3 X-0.1696 Y-0.8874 I0.0005 J0.05 F89.4
N1750 X-0.1383 Y-0.8424 I-0.0186 J0.0464 F92.4
N1755 G1 X-0.1338 Y-0.6762
N1760 G3 X-0.1694 Y-0.627 I-0.05 J0.0014
N1765 X-0.1888 Y-0.6251 I-0.0144 J-0.0479 F89.4
N1770 G1 X-0.2038 Y-0.6272 F92.4
N1775 X-0.2338 Y-0.6289
N1780 X-0.2787 Y-0.6306
N1785 X-0.2878 Y-0.6314
N1790 X-0.2973 Y-0.6329
N1795 X-0.307 Y-0.6354
N1800 X-0.3174 Y-0.6389
N1805 X-0.3282 Y-0.6436
N1810 X-0.3392 Y-0.6494
N1815 X-0.3502 Y-0.6565
N1820 X-0.3613 Y-0.6649
N1825 X-0.3723 Y-0.6747
N1830 X-0.3824 Y-0.6853
N1835 X-0.3916 Y-0.6967
N1840 X-0.4 Y-0.7089
N1845 X-0.4071 Y-0.7213
N1850 X-0.4135 Y-0.7349
N1855 X-0.4185 Y-0.7482
N1860 X-0.4227 Y-0.7628
N1865 X-0.4255 Y-0.7769
N1870 X-0.4273 Y-0.7916
N1875 X-0.4278 Y-0.8063
N1880 X-0.4258 Y-0.8212
N1885 X-0.4211 Y-0.8355
N1890 X-0.4137 Y-0.8487
N1895 X-0.4041 Y-0.8603
N1900 X-0.3925 Y-0.8699
N1905 X-0.3794 Y-0.8772
N1910 X-0.365 Y-0.882
N1915 X-0.3501 Y-0.8841
N1920 X-0.2487 Y-0.8884
N1925 G3 X-0.2295 Y-0.8847 I0.0004 J0.05 F89.4
N1930 X-0.1992 Y-0.8289 I-0.0188 J0.0463 F92.4
N1935 G1 X-0.2296 Y-0.6711
N1940 G3 X-0.2596 Y-0.6343 I-0.0491 J-0.0095
N1945 X-0.2787 Y-0.6306 I-0.0191 J-0.0462 F89.4
N1950 G1 X-0.3769 Y-0.6341 F92.4
N1955 X-0.3889 Y-0.6352
N1960 X-0.3982 Y-0.6367
N1965 X-0.4082 Y-0.6392
N1970 X-0.4183 Y-0.6427
N1975 X-0.4289 Y-0.6473
N1980 X-0.4398 Y-0.6531
N1985 X-0.4508 Y-0.6601
N1990 X-0.4616 Y-0.6682
N1995 X-0.4722 Y-0.6778
N2000 X-0.4816 Y-0.6876
N2005 X-0.4908 Y-0.6989
N2010 X-0.4986 Y-0.7103
N2015 X-0.5057 Y-0.7227
N2020 X-0.5117 Y-0.7355
N2025 X-0.5166 Y-0.7486
N2030 X-0.5206 Y-0.7625
N2035 X-0.5233 Y-0.776
N2040 X-0.5251 Y-0.7916
N2045 X-0.5244 Y-0.8064
N2050 X-0.5211 Y-0.8208
N2055 X-0.5154 Y-0.8345
N2060 X-0.5074 Y-0.847
N2065 X-0.4973 Y-0.8579
N2070 X-0.4856 Y-0.8669
N2075 X-0.4724 Y-0.8737
N2080 X-0.4583 Y-0.8781
N2085 X-0.4436 Y-0.88
N2090 X-0.3501 Y-0.8841
N2095 G3 X-0.3309 Y-0.8804 I0.0004 J0.05 F89.4
N2100 X-0.3005 Y-0.8252 I-0.0188 J0.0463 F92.4
N2105 G1 X-0.3276 Y-0.6752
N2110 G3 X-0.3577 Y-0.6379 I-0.0492 J-0.0089
N2115 X-0.3769 Y-0.6341 I-0.0191 J-0.0462 F89.4
N2120 G1 X-0.4818 Y-0.6379 F92.4
N2125 X-0.4884 Y-0.6385
N2130 X-0.4975 Y-0.64
N2135 X-0.5072 Y-0.6425
N2140 X-0.5172 Y-0.6459
N2145 X-0.5275 Y-0.6503
N2150 X-0.5382 Y-0.656
N2155 X-0.5489 Y-0.6629
N2160 X-0.5591 Y-0.6706
N2165 X-0.5687 Y-0.6792
N2170 X-0.5779 Y-0.6888
N2175 X-0.586 Y-0.6989
N2180 X-0.5938 Y-0.7102
N2185 X-0.6003 Y-0.7215
N2190 X-0.6062 Y-0.7342
N2195 X-0.611 Y-0.7467
N2200 X-0.6148 Y-0.7601
N2205 X-0.6175 Y-0.7736
N2210 X-0.6192 Y-0.7873
N2215 X-0.6184 Y-0.8022
N2220 X-0.6151 Y-0.8167
N2225 X-0.6094 Y-0.8304
N2230 X-0.6014 Y-0.8429
N2235 X-0.5913 Y-0.8538
N2240 X-0.5795 Y-0.8628
N2245 X-0.5663 Y-0.8697
N2250 X-0.5521 Y-0.8741
N2255 X-0.5374 Y-0.876
N2260 X-0.4436 Y-0.88
N2265 G3 X-0.4244 Y-0.8764 I0.0004 J0.05 F89.4
N2270 X-0.3949 Y-0.817 I-0.0188 J0.0463 F92.4
N2275 G1 X-0.4334 Y-0.6749
N2280 G3 X-0.4626 Y-0.6417 I-0.0483 J-0.0131
N2285 X-0.4818 Y-0.6379 I-0.0191 J-0.0462 F89.4
N2290 G1 X-0.5784 Y-0.6415 F92.4
N2295 X-0.5852 Y-0.642
N2300 X-0.5938 Y-0.6435
N2305 X-0.6031 Y-0.6458
N2310 X-0.6129 Y-0.6492
N2315 X-0.6228 Y-0.6534
N2320 X-0.633 Y-0.6588
N2325 X-0.6434 Y-0.6655
N2330 X-0.6529 Y-0.6727
N2335 X-0.6623 Y-0.6811
N2340 X-0.6709 Y-0.6902
N2345 X-0.6788 Y-0.6999
N2350 X-0.6862 Y-0.7107
N2355 X-0.6925 Y-0.7217
N2360 X-0.6983 Y-0.7339
N2365 X-0.7028 Y-0.7459
N2370 X-0.7066 Y-0.7591
N2375 X-0.7092 Y-0.7721
N2380 X-0.7108 Y-0.7856
N2385 X-0.7101 Y-0.8001
N2390 X-0.7069 Y-0.8142
N2395 X-0.7013 Y-0.8276
N2400 X-0.6935 Y-0.8397
N2405 X-0.6837 Y-0.8504
N2410 X-0.6722 Y-0.8591
N2415 X-0.6593 Y-0.8658
N2420 X-0.6455 Y-0.8701
N2425 X-0.6312 Y-0.872
N2430 X-0.5374 Y-0.876
N2435 G3 X-0.5182 Y-0.8724 I0.0004 J0.05 F89.4
N2440 X-0.4892 Y-0.8113 I-0.0188 J0.0463 F92.4
N2445 G1 X-0.5306 Y-0.6768
N2450 G3 X-0.5593 Y-0.6452 I-0.0478 J-0.0147
N2455 X-0.5784 Y-0.6415 I-0.0191 J-0.0462 F89.4
N2460 G1 X-0.6683 Y-0.6447 F92.4
N2465 X-0.6789 Y-0.6456
N2470 X-0.6873 Y-0.6471
N2475 X-0.6961 Y-0.6493
N2480 X-0.7057 Y-0.6525
N2485 X-0.7154 Y-0.6567
N2490 X-0.7252 Y-0.6619
N2495 X-0.7352 Y-0.6684
N2500 X-0.7444 Y-0.6753
N2505 X-0.7535 Y-0.6835
N2510 X-0.7618 Y-0.6921
N2515 X-0.7696 Y-0.7017
N2520 X-0.7766 Y-0.7121
N2525 X-0.7828 Y-0.7227
N2530 X-0.7883 Y-0.7346
N2535 X-0.7927 Y-0.7462
N2540 X-0.7964 Y-0.759
N2545 X-0.7989 Y-0.7716
N2550 X-0.8005 Y-0.7849
N2555 X-0.7996 Y-0.8005
N2560 X-0.7956 Y-0.8157
N2565 X-0.7888 Y-0.8298
N2570 X-0.7793 Y-0.8423
N2575 X-0.7676 Y-0.8527
N2580 X-0.7541 Y-0.8607
N2585 X-0.7394 Y-0.8658
N2590 X-0.7239 Y-0.868
N2595 X-0.6312 Y-0.872
N2600 G3 X-0.612 Y-0.8684 I0.0004 J0.05 F89.4
N2605 X-0.5828 Y-0.8079 I-0.0188 J0.0463 F92.4
N2610 G1 X-0.6203 Y-0.6806
N2615 G3 X-0.6492 Y-0.6485 I-0.048 J-0.0141
N2620 X-0.6683 Y-0.6447 I-0.0191 J-0.0462 F89.4
N2625 G1 X-0.7582 Y-0.648 F92.4
N2630 X-0.7701 Y-0.649
N2635 X-0.7783 Y-0.6504
N2640 X-0.7869 Y-0.6526
N2645 X-0.7962 Y-0.6557
N2650 X-0.8057 Y-0.6598
N2655 X-0.8153 Y-0.6649
N2660 X-0.825 Y-0.6712
N2665 X-0.8338 Y-0.6778
N2670 X-0.8428 Y-0.6858
N2675 X-0.8509 Y-0.6943
N2680 X-0.8582 Y-0.7034
N2685 X-0.8653 Y-0.7137
N2690 X-0.8712 Y-0.724
N2695 X-0.8766 Y-0.7354
N2700 X-0.881 Y-0.7471
N2705 X-0.8843 Y-0.7588
N2710 X-0.887 Y-0.7717
N2715 X-0.8874 Y-0.7869
N2720 X-0.885 Y-0.8019
N2725 X-0.88 Y-0.8162
N2730 X-0.8724 Y-0.8293
N2735 X-0.8626 Y-0.8408
N2740 X-0.8509 Y-0.8504
N2745 X-0.8376 Y-0.8577
N2750 X-0.8232 Y-0.8624
N2755 X-0.8082 Y-0.8644
N2760 X-0.7239 Y-0.868
N2765 G3 X-0.7047 Y-0.8644 I0.0004 J0.05 F89.4
N2770 X-0.6754 Y-0.8041 I-0.0188 J0.0463 F92.4
N2775 G1 X-0.7101 Y-0.6841
N2780 G3 X-0.7391 Y-0.6518 I-0.048 J-0.0139
N2785 X-0.7582 Y-0.648 I-0.0191 J-0.0462 F89.4
N2790 G1 X-0.8482 Y-0.6513 F92.4
N2795 X-0.8593 Y-0.6522
N2800 X-0.8674 Y-0.6536
N2805 X-0.8758 Y-0.6557
N2810 X-0.8848 Y-0.6588
N2815 X-0.8942 Y-0.6628
N2820 X-0.9032 Y-0.6676
N2825 X-0.9119 Y-0.6732
N2830 X-0.9207 Y-0.6798
N2835 X-0.9285 Y-0.6868
N2840 X-0.9365 Y-0.6951
N2845 X-0.9435 Y-0.7039
N2850 X-0.95 Y-0.7133
N2855 X-0.9559 Y-0.7237
N2860 X-0.9608 Y-0.7341
N2865 X-0.9652 Y-0.7457
N2870 X-0.9685 Y-0.7573
N2875 X-0.971 Y-0.7694
N2880 X-0.9714 Y-0.7844
N2885 X-0.9691 Y-0.7991
N2890 X-0.9641 Y-0.8132
N2895 X-0.9567 Y-0.8261
N2900 X-0.947 Y-0.8375
N2905 X-0.9354 Y-0.847
N2910 X-0.9223 Y-0.8541
N2915 X-0.9081 Y-0.8588
N2920 X-0.8933 Y-0.8608
N2925 X-0.8082 Y-0.8644
N2930 G3 X-0.789 Y-0.8608 I0.0004 J0.05 F89.4
N2935 X-0.7607 Y-0.7976 I-0.0188 J0.0463 F92.4
N2940 G1 X-0.801 Y-0.6845
N2945 G3 X-0.829 Y-0.655 I-0.0471 J-0.0168
N2950 X-0.8482 Y-0.6513 I-0.0191 J-0.0462 F89.4
N2955 G1 X-0.9381 Y-0.6545 F92.4
N2960 X-0.9451 Y-0.6551
N2965 X-0.953 Y-0.6565
N2970 X-0.9613 Y-0.6586
N2975 X-0.9699 Y-0.6615
N2980 X-0.9789 Y-0.6654
N2985 X-0.9874 Y-0.6699
N2990 X-0.996 Y-0.6754
N2995 X-1.0043 Y-0.6817
N3000 X-1.0119 Y-0.6884
N3005 X-1.0196 Y-0.6965
N3010 X-1.0264 Y-0.7049
N3015 X-1.0327 Y-0.7141
N3020 X-1.0384 Y-0.7241
N3025 X-1.0432 Y-0.7342
N3030 X-1.0475 Y-0.7456
N3035 X-1.0507 Y-0.7567
N3040 X-1.0531 Y-0.7687
N3045 X-1.0535 Y-0.7831
N3050 X-1.0512 Y-0.7974
N3055 X-1.0464 Y-0.8111
N3060 X-1.0392 Y-0.8236
N3065 X-1.0298 Y-0.8346
N3070 X-1.0186 Y-0.8438
N3075 X-1.0059 Y-0.8507
N3080 X-0.9922 Y-0.8552
N3085 X-0.9778 Y-0.8571
N3090 X-0.8933 Y-0.8608
N3095 G3 X-0.8742 Y-0.8571 I0.0004 J0.05 F89.4
N3100 X-0.8469 Y-0.7912 I-0.0188 J0.0463 F92.4
N3105 G1 X-0.892 Y-0.685
N3110 G3 X-0.9189 Y-0.6583 I-0.046 J-0.0195
N3115 X-0.9381 Y-0.6545 I-0.0191 J-0.0462 F89.4
N3120 G1 X-1.0212 Y-0.6576 F92.4
N3125 X-1.0286 Y-0.6582
N3130 X-1.0363 Y-0.6595
N3135 X-1.0444 Y-0.6615
N3140 X-1.0527 Y-0.6644
N3145 X-1.0615 Y-0.6681
N3150 X-1.0696 Y-0.6725
N3155 X-1.078 Y-0.6778
N3160 X-1.086 Y-0.6839
N3165 X-1.0934 Y-0.6905
N3170 X-1.1009 Y-0.6984
N3175 X-1.1074 Y-0.7064
N3180 X-1.1137 Y-0.7155
N3185 X-1.1192 Y-0.7251
N3190 X-1.1238 Y-0.735
N3195 X-1.1279 Y-0.746
N3200 X-1.1316 Y-0.7597
N3205 X-1.1332 Y-0.7746
N3210 X-1.1318 Y-0.7896
N3215 X-1.1277 Y-0.8041
N3220 X-1.1208 Y-0.8175
N3225 X-1.1115 Y-0.8294
N3230 X-1.1001 Y-0.8392
N3235 X-1.0871 Y-0.8467
N3240 X-1.0729 Y-0.8516
N3245 X-1.0579 Y-0.8537
N3250 X-0.9778 Y-0.8571
N3255 G3 X-0.9587 Y-0.8535 I0.0004 J0.05 F89.4
N3260 X-0.9317 Y-0.7871 I-0.0188 J0.0463 F92.4
N3265 G1 X-0.9754 Y-0.6875
N3270 G3 X-1.0021 Y-0.6613 I-0.0458 J-0.0201
N3275 X-1.0212 Y-0.6576 I-0.0191 J-0.0462 F89.4
N3280 G1 X-1.1029 Y-0.6605 F92.4
N3285 X-1.11 Y-0.6611
N3290 X-1.1176 Y-0.6624
N3295 X-1.1255 Y-0.6644
N3300 X-1.1335 Y-0.6671
N3305 X-1.1412 Y-0.6705
N3310 X-1.1496 Y-0.6749
N3315 X-1.1574 Y-0.6799
N3320 X-1.1649 Y-0.6856
N3325 X-1.1725 Y-0.6923
N3330 X-1.1792 Y-0.6994
N3335 X-1.1858 Y-0.7075
N3340 X-1.1917 Y-0.7162
N3345 X-1.1968 Y-0.7251
N3350 X-1.2016 Y-0.7353
N3355 X-1.2055 Y-0.7455
N3360 X-1.2085 Y-0.7563
N3365 X-1.2101 Y-0.7712
N3370 X-1.2088 Y-0.7863
N3375 X-1.2046 Y-0.8008
N3380 X-1.1977 Y-0.8142
N3385 X-1.1884 Y-0.826
N3390 X-1.177 Y-0.8359
N3395 X-1.164 Y-0.8434
N3400 X-1.1497 Y-0.8483
N3405 X-1.1348 Y-0.8504
N3410 X-1.0579 Y-0.8537
N3415 G3 X-1.0388 Y-0.8499 I0.0004 J0.0483 F89.4
N3420 X-1.0205 Y-0.8364 I-0.0187 J0.0445 F92.4
N3425 X-1.0834 Y-0.6623 I-0.0823 J0.0687
N3430 X-1.1029 Y-0.6605 I-0.0194 J-0.1054 F89.4
N3435 G1 X-1.1824 Y-0.6634 F92.4
N3440 X-1.1888 Y-0.664
N3445 X-1.196 Y-0.6652
N3450 X-1.2038 Y-0.6671
N3455 X-1.2113 Y-0.6697
N3460 X-1.2188 Y-0.6729
N3465 X-1.2267 Y-0.6771
N3470 X-1.234 Y-0.6818
N3475 X-1.2413 Y-0.6873
N3480 X-1.2485 Y-0.6937
N3485 X-1.2548 Y-0.7004
N3490 X-1.2613 Y-0.7083
N3495 X-1.267 Y-0.7166
N3500 X-1.2719 Y-0.7253
N3505 X-1.2766 Y-0.7352
N3510 X-1.2803 Y-0.745
N3515 X-1.2833 Y-0.7556
N3520 X-1.2848 Y-0.7701
N3525 X-1.2835 Y-0.7847
N3530 X-1.2794 Y-0.7988
N3535 X-1.2728 Y-0.8119
N3540 X-1.2637 Y-0.8234
N3545 X-1.2526 Y-0.833
N3550 X-1.2399 Y-0.8403
N3555 X-1.2261 Y-0.8451
N3560 X-1.2116 Y-0.8471
N3565 X-1.1348 Y-0.8504
N3570 G3 X-1.1157 Y-0.8465 I0.0004 J0.0468 F89.4
N3575 X-1.0965 Y-0.831 I-0.0187 J0.0429 F92.4
N3580 X-1.1628 Y-0.6652 I-0.0857 J0.0619
N3585 X-1.1824 Y-0.6634 I-0.0194 J-0.1039 F89.4
N3590 G1 X-1.2573 Y-0.6661 F92.4
N3595 X-1.2648 Y-0.6668
N3600 X-1.2718 Y-0.668
N3605 X-1.2793 Y-0.6699
N3610 X-1.2865 Y-0.6723
N3615 X-1.2939 Y-0.6755
N3620 X-1.3015 Y-0.6795
N3625 X-1.3084 Y-0.684
N3630 X-1.3156 Y-0.6894
N3635 X-1.3225 Y-0.6955
N3640 X-1.3287 Y-0.702
N3645 X-1.3349 Y-0.7098
N3650 X-1.3404 Y-0.7178
N3655 X-1.3453 Y-0.7263
N3660 X-1.3498 Y-0.7358
N3665 X-1.3535 Y-0.7458
N3670 X-1.3561 Y-0.7595
N3675 X-1.3562 Y-0.7734
N3680 X-1.3538 Y-0.7871
N3685 X-1.349 Y-0.8002
N3690 X-1.3419 Y-0.8121
N3695 X-1.3328 Y-0.8226
N3700 X-1.322 Y-0.8313
N3705 X-1.3097 Y-0.8379
N3710 X-1.2965 Y-0.8422
N3715 X-1.2827 Y-0.8441
N3720 X-1.2116 Y-0.8471
N3725 G3 X-1.1925 Y-0.8431 I0.0004 J0.0453 F89.4
N3730 X-1.1747 Y-0.8286 I-0.0187 J0.0412 F92.4
N3735 X-1.2378 Y-0.668 I-0.0825 J0.0603
N3740 X-1.2573 Y-0.6661 I-0.0194 J-0.1003 F89.4
N3745 G1 X-1.3322 Y-0.6689 F92.4
N3750 X-1.3388 Y-0.6694
N3755 X-1.3455 Y-0.6706
N3760 X-1.3519 Y-0.6722
N3765 X-1.3591 Y-0.6746
N3770 X-1.3661 Y-0.6776
N3775 X-1.3729 Y-0.6812
N3780 X-1.38 Y-0.6858
N3785 X-1.3865 Y-0.6907
N3790 X-1.3931 Y-0.6966
N3795 X-1.3993 Y-0.7031
N3800 X-1.4049 Y-0.7101
N3805 X-1.4105 Y-0.7181
N3810 X-1.4151 Y-0.7263
N3815 X-1.4194 Y-0.7354
N3820 X-1.423 Y-0.7449
N3825 X-1.4241 Y-0.7487
N3830 X-1.4266 Y-0.7629
N3835 X-1.4263 Y-0.7774
N3840 X-1.4231 Y-0.7916
N3845 X-1.4172 Y-0.8048
N3850 X-1.4087 Y-0.8166
N3855 X-1.398 Y-0.8264
N3860 X-1.3856 Y-0.8339
N3865 X-1.372 Y-0.8388
N3870 X-1.3576 Y-0.8409
N3875 X-1.2827 Y-0.8441
N3880 G3 X-1.2637 Y-0.8399 I0.0003 J0.0438 F89.4
N3885 X-1.2448 Y-0.8227 I-0.0187 J0.0396 F92.4
N3890 X-1.3127 Y-0.6707 I-0.0873 J0.0522
N3895 X-1.3322 Y-0.6689 I-0.0194 J-0.0998 F89.4
N3900 G1 X-1.4026 Y-0.6714 F92.4
N3905 X-1.4095 Y-0.672
N3910 X-1.416 Y-0.6731
N3915 X-1.4224 Y-0.6747
N3920 X-1.4296 Y-0.6772
N3925 X-1.4366 Y-0.6802
N3930 X-1.4431 Y-0.6837
N3935 X-1.4502 Y-0.6882
N3940 X-1.4568 Y-0.6932
N3945 X-1.463 Y-0.6987
N3950 X-1.4693 Y-0.7053
N3955 X-1.4749 Y-0.7122
N3960 X-1.48 Y-0.7197
N3965 X-1.4849 Y-0.7282
N3970 X-1.4888 Y-0.7366
N3975 X-1.4923 Y-0.7459
N3980 X-1.4949 Y-0.7602
N3985 X-1.4946 Y-0.7746
N3990 X-1.4914 Y-0.7887
N3995 X-1.4854 Y-0.8019
N4000 X-1.477 Y-0.8137
N4005 X-1.4664 Y-0.8235
N4010 X-1.454 Y-0.831
N4015 X-1.4404 Y-0.8359
N4020 X-1.426 Y-0.8379
N4025 X-1.3576 Y-0.8409
N4030 G3 X-1.3387 Y-0.8366 I0.0003 J0.0424 F89.4
N4035 X-1.3221 Y-0.8221 I-0.0186 J0.0381 F92.4
N4040 X-1.3831 Y-0.6734 I-0.0803 J0.0539
N4045 X-1.4026 Y-0.6714 I-0.0194 J-0.0948 F89.4
N4050 G1 X-1.4708 Y-0.6739 F92.4
N4055 X-1.4794 Y-0.6746
N4060 X-1.4856 Y-0.6757
N4065 X-1.4916 Y-0.6772
N4070 X-1.4985 Y-0.6795
N4075 X-1.505 Y-0.6824
N4080 X-1.5113 Y-0.6857
N4085 X-1.5181 Y-0.69
N4090 X-1.5243 Y-0.6948
N4095 X-1.5303 Y-0.7001
N4100 X-1.5363 Y-0.7064
N4105 X-1.5417 Y-0.713
N4110 X-1.5467 Y-0.7203
N4115 X-1.5513 Y-0.7284
N4120 X-1.5561 Y-0.739
N4125 X-1.5596 Y-0.7519
N4130 X-1.5606 Y-0.7653
N4135 X-1.5591 Y-0.7786
N4140 X-1.5551 Y-0.7914
N4145 X-1.5488 Y-0.8032
N4150 X-1.5404 Y-0.8137
N4155 X-1.5302 Y-0.8224
N4160 X-1.5185 Y-0.829
N4165 X-1.5058 Y-0.8333
N4170 X-1.4925 Y-0.8351
N4175 X-1.426 Y-0.8379
N4180 G3 X-1.4071 Y-0.8335 I0.0003 J0.041 F89.4
N4185 X-1.3911 Y-0.819 I-0.0186 J0.0366 F92.4
N4190 X-1.4513 Y-0.6759 I-0.0795 J0.0507
N4195 X-1.4708 Y-0.6739 I-0.0194 J-0.0923 F89.4
N4200 G1 X-1.5375 Y-0.6763 F92.4
N4205 X-1.546 Y-0.6771
N4210 X-1.5519 Y-0.678
N4215 X-1.5582 Y-0.6796
N4220 X-1.5641 Y-0.6817
N4225 X-1.5706 Y-0.6844
N4230 X-1.5769 Y-0.6878
N4235 X-1.5829 Y-0.6916
N4240 X-1.5893 Y-0.6964
N4245 X-1.5951 Y-0.7016
N4250 X-1.6006 Y-0.7074
N4255 X-1.606 Y-0.7141
N4260 X-1.6107 Y-0.721
N4265 X-1.6152 Y-0.7288
N4270 X-1.6191 Y-0.7371
N4275 X-1.6226 Y-0.7499
N4280 X-1.6236 Y-0.7632
N4285 X-1.6221 Y-0.7764
N4290 X-1.6182 Y-0.7891
N4295 X-1.6119 Y-0.8008
N4300 X-1.6036 Y-0.8111
N4305 X-1.5934 Y-0.8197
N4310 X-1.5819 Y-0.8263
N4315 X-1.5693 Y-0.8305
N4320 X-1.5561 Y-0.8324
N4325 X-1.4925 Y-0.8351
N4330 G3 X-1.4736 Y-0.8305 I0.0003 J0.0397 F89.4
N4335 X-1.4581 Y-0.8157 I-0.0186 J0.0351 F92.4
N4340 X-1.518 Y-0.6784 I-0.0793 J0.0471
N4345 X-1.5375 Y-0.6763 I-0.0194 J-0.0902 F89.4
N4350 G1 X-1.6056 Y-0.6788 F92.4
N4355 X-1.611 Y-0.6793
N4360 X-1.6169 Y-0.6803
N4365 X-1.6227 Y-0.6819
N4370 X-1.6284 Y-0.6839
N4375 X-1.6347 Y-0.6867
N4380 X-1.6406 Y-0.69
N4385 X-1.6465 Y-0.6938
N4390 X-1.6525 Y-0.6985
N4395 X-1.658 Y-0.7035
N4400 X-1.6635 Y-0.7094
N4405 X-1.6686 Y-0.7158
N4410 X-1.673 Y-0.7225
N4415 X-1.6774 Y-0.7303
N4420 X-1.6818 Y-0.7433
N4425 X-1.6836 Y-0.7569
N4430 X-1.6828 Y-0.7707
N4435 X-1.6793 Y-0.7839
N4440 X-1.6733 Y-0.7963
N4445 X-1.665 Y-0.8072
N4450 X-1.6548 Y-0.8164
N4455 X-1.6429 Y-0.8233
N4460 X-1.6299 Y-0.8279
N4465 X-1.6163 Y-0.8298
N4470 X-1.5561 Y-0.8324
N4475 G3 X-1.5373 Y-0.8276 I0.0003 J0.0384 F89.4
N4480 X-1.5207 Y-0.8097 I-0.0185 J0.0336 F92.4
N4485 X-1.5862 Y-0.6808 I-0.0848 J0.038
N4490 X-1.6056 Y-0.6788 I-0.0194 J-0.0909 F89.4
N4495 G1 X-1.6656 Y-0.681 F92.4
N4500 X-1.6718 Y-0.6815
N4505 X-1.6771 Y-0.6824
N4510 X-1.6824 Y-0.6837
N4515 X-1.6883 Y-0.6857
N4520 X-1.694 Y-0.6882
N4525 X-1.6994 Y-0.6911
N4530 X-1.7054 Y-0.695
N4535 X-1.711 Y-0.6992
N4540 X-1.7163 Y-0.7039
N4545 X-1.7217 Y-0.7097
N4550 X-1.7265 Y-0.7156
N4555 X-1.731 Y-0.7222
N4560 X-1.7352 Y-0.7296
N4565 X-1.7397 Y-0.7423
N4570 X-1.7416 Y-0.7556
N4575 X-1.7409 Y-0.7691
N4580 X-1.7376 Y-0.7821
N4585 X-1.7318 Y-0.7943
N4590 X-1.7237 Y-0.805
N4595 X-1.7137 Y-0.814
N4600 X-1.7021 Y-0.8209
N4605 X-1.6894 Y-0.8253
N4610 X-1.676 Y-0.8272
N4615 X-1.6163 Y-0.8298
N4620 G3 X-1.5976 Y-0.8249 I0.0003 J0.0372 F89.4
N4625 X-1.5817 Y-0.807 I-0.0185 J0.0323 F92.4
N4630 X-1.6461 Y-0.6831 I-0.0837 J0.0352
N4635 X-1.6656 Y-0.681 I-0.0194 J-0.0887 F89.4
N4640 G1 X-1.7255 Y-0.6832 F92.4
N4645 X-1.7309 Y-0.6836
N4650 X-1.7362 Y-0.6845
N4655 X-1.7414 Y-0.6859
N4660 X-1.7471 Y-0.6879
N4665 X-1.7525 Y-0.6903
N4670 X-1.758 Y-0.6933
N4675 X-1.7637 Y-0.6971
N4680 X-1.769 Y-0.7011
N4685 X-1.7743 Y-0.706
N4690 X-1.7794 Y-0.7115
N4695 X-1.7839 Y-0.7172
N4700 X-1.7885 Y-0.7241
N4705 X-1.794 Y-0.7367
N4710 X-1.7968 Y-0.7502
N4715 Y-0.764
N4720 X-1.794 Y-0.7775
N4725 X-1.7885 Y-0.7902
N4730 X-1.7806 Y-0.8014
N4735 X-1.7706 Y-0.8109
N4740 X-1.7589 Y-0.8181
N4745 X-1.7459 Y-0.8228
N4750 X-1.7323 Y-0.8248
N4755 X-1.676 Y-0.8272
N4760 G3 X-1.6573 Y-0.8222 I0.0003 J0.036 F89.4
N4765 X-1.6421 Y-0.804 I-0.0184 J0.031 F92.4
N4770 X-1.706 Y-0.6853 I-0.0833 J0.0317
N4775 X-1.7255 Y-0.6832 I-0.0194 J-0.087 F89.4
N4780 G1 X-1.7818 Y-0.6852 F92.4
N4785 X-1.7871 Y-0.6857
N4790 X-1.7925 Y-0.6866
N4795 X-1.7978 Y-0.688
N4800 X-1.8028 Y-0.6898
N4805 X-1.8081 Y-0.6922
N4810 X-1.8136 Y-0.6952
N4815 X-1.8188 Y-0.6986
N4820 X-1.824 Y-0.7027
N4825 X-1.8292 Y-0.7075
N4830 X-1.8339 Y-0.7126
N4835 X-1.8385 Y-0.7184
N4840 X-1.8428 Y-0.7249
N4845 X-1.848 Y-0.7372
N4850 X-1.8507 Y-0.7503
N4855 X-1.8506 Y-0.7636
N4860 X-1.8479 Y-0.7767
N4865 X-1.8426 Y-0.7889
N4870 X-1.8349 Y-0.7998
N4875 X-1.8252 Y-0.809
N4880 X-1.8138 Y-0.816
N4885 X-1.8013 Y-0.8205
N4890 X-1.7881 Y-0.8224
N4895 X-1.7323 Y-0.8248
N4900 G3 X-1.7136 Y-0.8196 I0.0003 J0.0349 F89.4
N4905 X-1.699 Y-0.8013 I-0.0184 J0.0297 F92.4
N4910 X-1.7623 Y-0.6874 I-0.0826 J0.0287
N4915 X-1.7818 Y-0.6852 I-0.0193 J-0.0853 F89.4
N4920 G1 X-1.8372 Y-0.6872 F92.4
N4925 X-1.8425 Y-0.6877
N4930 X-1.8478 Y-0.6887
N4935 X-1.853 Y-0.6902
N4940 X-1.8581 Y-0.6921
N4945 X-1.8635 Y-0.6947
N4950 X-1.8687 Y-0.6977
N4955 X-1.8736 Y-0.7011
N4960 X-1.8788 Y-0.7054
N4965 X-1.8837 Y-0.7101
N4970 X-1.8882 Y-0.7151
N4975 X-1.8949 Y-0.7262
N4980 X-1.8993 Y-0.7384
N4985 X-1.9012 Y-0.7512
N4990 X-1.9006 Y-0.7642
N4995 X-1.8975 Y-0.7767
N5000 X-1.8919 Y-0.7884
N5005 X-1.8842 Y-0.7988
N5010 X-1.8746 Y-0.8075
N5015 X-1.8634 Y-0.8141
N5020 X-1.8512 Y-0.8184
N5025 X-1.8384 Y-0.8203
N5030 X-1.7881 Y-0.8224
N5035 G3 X-1.7695 Y-0.817 I0.0003 J0.0338 F89.4
N5040 X-1.7556 Y-0.799 I-0.0183 J0.0284 F92.4
N5045 X-1.8177 Y-0.6894 I-0.0814 J0.0262
N5050 X-1.8372 Y-0.6872 I-0.0193 J-0.0833 F89.4
N5055 G1 X-1.8866 Y-0.689 F92.4
N5060 X-1.8927 Y-0.6895
N5065 X-1.8981 Y-0.6904
N5070 X-1.9033 Y-0.6919
N5075 X-1.9083 Y-0.6937
N5080 X-1.9132 Y-0.696
N5085 X-1.9184 Y-0.699
N5090 X-1.9232 Y-0.7024
N5095 X-1.928 Y-0.7063
N5100 X-1.9328 Y-0.7109
N5105 X-1.9372 Y-0.7158
N5110 X-1.9443 Y-0.7277
N5115 X-1.9486 Y-0.7409
N5120 X-1.9501 Y-0.7547
N5125 X-1.9485 Y-0.7684
N5130 X-1.9439 Y-0.7815
N5135 X-1.9367 Y-0.7934
N5140 X-1.9271 Y-0.8033
N5145 X-1.9155 Y-0.811
N5150 X-1.9026 Y-0.816
N5155 X-1.8889 Y-0.8181
N5160 X-1.8384 Y-0.8203
N5165 G3 X-1.8198 Y-0.8147 I0.0003 J0.0328 F89.4
N5170 X-1.8067 Y-0.7971 I-0.0183 J0.0273 F92.4
N5175 X-1.8672 Y-0.6913 I-0.0798 J0.0246
N5180 X-1.8866 Y-0.689 I-0.0193 J-0.0812 F89.4
N5185 G1 X-1.9353 Y-0.6908 F92.4
N5190 X-1.9419 Y-0.6913
N5195 X-1.9472 Y-0.6922
N5200 X-1.9525 Y-0.6937
N5205 X-1.9575 Y-0.6956
N5210 X-1.9624 Y-0.6979
N5215 X-1.9672 Y-0.7008
N5220 X-1.9722 Y-0.7043
N5225 X-1.9767 Y-0.708
N5230 X-1.9812 Y-0.7124
N5235 X-1.9857 Y-0.7176
N5240 X-1.9924 Y-0.7291
N5245 X-1.9965 Y-0.7418
N5250 X-1.9978 Y-0.7551
N5255 X-1.9962 Y-0.7683
N5260 X-1.9918 Y-0.7809
N5265 X-1.9848 Y-0.7922
N5270 X-1.9755 Y-0.8018
N5275 X-1.9644 Y-0.8092
N5280 X-1.9519 Y-0.814
N5285 X-1.9388 Y-0.816
N5290 X-1.8889 Y-0.8181
N5295 G3 X-1.8704 Y-0.8124 I0.0003 J0.0318 F89.4
N5300 X-1.8583 Y-0.7959 I-0.0182 J0.0261 F92.4
N5305 X-1.9159 Y-0.6931 I-0.0769 J0.0244
N5310 X-1.9353 Y-0.6908 I-0.0193 J-0.0784 F89.4
N5315 G1 X-1.987 Y-0.6927 F92.4
N5320 X-1.9924 Y-0.6931
N5325 X-1.9977 Y-0.6943
N5330 X-2.0028 Y-0.696
N5335 X-2.0078 Y-0.6981
N5340 X-2.0125 Y-0.7006
N5345 X-2.0175 Y-0.7039
N5350 X-2.0222 Y-0.7074
N5355 X-2.0264 Y-0.7113
N5360 X-2.0341 Y-0.7214
N5365 X-2.0395 Y-0.7328
N5370 X-2.0424 Y-0.7451
N5375 X-2.0428 Y-0.7577
N5380 X-2.0405 Y-0.7701
N5385 X-2.0357 Y-0.7818
N5390 X-2.0287 Y-0.7923
N5395 X-2.0196 Y-0.8011
N5400 X-2.0089 Y-0.8078
N5405 X-1.997 Y-0.8122
N5410 X-1.9846 Y-0.814
N5415 X-1.9388 Y-0.816
N5420 G3 X-1.9204 Y-0.8101 I0.0002 J0.0308 F89.4
N5425 X-1.9085 Y-0.7924 I-0.0181 J0.0249 F92.4
N5430 X-1.9676 Y-0.695 I-0.0783 J0.0191
N5435 X-1.987 Y-0.6927 I-0.0193 J-0.0783 F89.4
N5440 G1 X-2.032 Y-0.6943 F92.4
N5445 X-2.0373 Y-0.6948
N5450 X-2.0426 Y-0.6958
N5455 X-2.0478 Y-0.6975
N5460 X-2.0527 Y-0.6996
N5465 X-2.0575 Y-0.7021
N5470 X-2.062 Y-0.7051
N5475 X-2.0667 Y-0.7087
N5480 X-2.0752 Y-0.7182
N5485 X-2.0814 Y-0.7293
N5490 X-2.0851 Y-0.7415
N5495 X-2.0861 Y-0.7542
N5500 X-2.0844 Y-0.7668
N5505 X-2.0801 Y-0.7788
N5510 X-2.0733 Y-0.7896
N5515 X-2.0644 Y-0.7987
N5520 X-2.0537 Y-0.8056
N5525 X-2.0418 Y-0.8102
N5530 X-2.0292 Y-0.8121
N5535 X-1.9846 Y-0.814
N5540 G3 X-1.9662 Y-0.8079 I0.0002 J0.0299 F89.4
N5545 X-1.9551 Y-0.7908 I-0.0181 J0.0239 F92.4
N5550 X-2.0125 Y-0.6967 I-0.0767 J0.0178
N5555 X-2.032 Y-0.6943 I-0.0193 J-0.0763 F89.4
N5560 G1 X-2.0769 Y-0.6959 F92.4
N5565 X-2.0823 Y-0.6964
N5570 X-2.0876 Y-0.6976
N5575 X-2.0926 Y-0.6994
N5580 X-2.0976 Y-0.7017
N5585 X-2.1022 Y-0.7044
N5590 X-2.1121 Y-0.7131
N5595 X-2.1198 Y-0.7237
N5600 X-2.1248 Y-0.7359
N5605 X-2.1271 Y-0.7488
N5610 X-2.1263 Y-0.762
N5615 X-2.1226 Y-0.7746
N5620 X-2.1162 Y-0.7861
N5625 X-2.1074 Y-0.7958
N5630 X-2.0966 Y-0.8033
N5635 X-2.0844 Y-0.8082
N5640 X-2.0714 Y-0.8103
N5645 X-2.0292 Y-0.8121
N5650 G3 X-2.011 Y-0.8058 I0.0002 J0.0291 F89.4
N5655 X-2.0005 Y-0.7886 I-0.018 J0.0228 F92.4
N5660 X-2.0575 Y-0.6984 I-0.0763 J0.0149
N5665 X-2.0769 Y-0.6959 I-0.0193 J-0.0753 F89.4
N5670 G1 X-2.1172 Y-0.6974 F92.4
N5675 X-2.1226 Y-0.6978
N5680 X-2.1278 Y-0.699
N5685 X-2.133 Y-0.7007
N5690 X-2.1379 Y-0.7029
N5695 X-2.1477 Y-0.71
N5700 X-2.1559 Y-0.719
N5705 X-2.1619 Y-0.7296
N5710 X-2.1655 Y-0.7412
N5715 X-2.1665 Y-0.7533
N5720 X-2.165 Y-0.7653
N5725 X-2.1609 Y-0.7767
N5730 X-2.1544 Y-0.787
N5735 X-2.1459 Y-0.7957
N5740 X-2.1358 Y-0.8024
N5745 X-2.1244 Y-0.8067
N5750 X-2.1124 Y-0.8085
N5755 X-2.0714 Y-0.8103
N5760 G3 X-2.0533 Y-0.8039 I0.0002 J0.0282 F89.4
N5765 X-2.0435 Y-0.7878 I-0.0179 J0.0218 F92.4
N5770 X-2.0978 Y-0.6999 I-0.0735 J0.0153
N5775 X-2.1172 Y-0.6974 I-0.0193 J-0.0726 F89.4
N5780 G1 X-2.1564 Y-0.6988 F92.4
N5785 X-2.1618 Y-0.6993
N5790 X-2.1671 Y-0.7003
N5795 X-2.1722 Y-0.702
N5800 X-2.1771 Y-0.7042
N5805 X-2.1875 Y-0.7118
N5810 X-2.1958 Y-0.7216
N5815 X-2.2016 Y-0.7331
N5820 X-2.2046 Y-0.7456
N5825 Y-0.7585
N5830 X-2.2016 Y-0.771
N5835 X-2.1958 Y-0.7824
N5840 X-2.1874 Y-0.7922
N5845 X-2.177 Y-0.7998
N5850 X-2.1652 Y-0.8048
N5855 X-2.1525 Y-0.8068
N5860 X-2.1503 Y-0.8067 F89.4
N5865 X-2.1482 Y-0.8065
N5870 G3 X-2.1335 Y-0.8021 I-0.0081 J0.0535
N5875 X-2.1372 Y-0.7023 I-0.0228 J0.0491 F92.4
N5880 X-2.1564 Y-0.6988 I-0.0191 J-0.0507 F89.4
N5885 G1 X-2.1954 Y-0.7002 F92.4
N5890 X-2.2008 Y-0.7007
N5895 X-2.2061 Y-0.7018
N5900 X-2.2112 Y-0.7035
N5905 X-2.2161 Y-0.7058
N5910 X-2.2208 Y-0.7085
N5915 X-2.2297 Y-0.7165
N5920 X-2.2366 Y-0.7263
N5925 X-2.2411 Y-0.7374
N5930 X-2.2431 Y-0.7492
N5935 X-2.2423 Y-0.7612
N5940 X-2.2389 Y-0.7727
N5945 X-2.233 Y-0.7831
N5950 X-2.2249 Y-0.792
N5955 X-2.2151 Y-0.7988
N5960 X-2.204 Y-0.8033
N5965 X-2.1921 Y-0.8051
N5970 X-2.1885 Y-0.8049 F89.4
N5975 G3 X-2.1732 Y-0.8004 I-0.0069 J0.0521
N5980 X-2.1762 Y-0.7038 I-0.0222 J0.0476 F92.4
N5985 X-2.1954 Y-0.7002 I-0.0191 J-0.049 F89.4
N5990 G1 X-2.235 Y-0.7017 F92.4
N5995 X-2.2404 Y-0.7021
N6000 X-2.2456 Y-0.7034
N6005 X-2.2507 Y-0.7053
N6010 X-2.2611 Y-0.7121
N6015 X-2.2695 Y-0.7212
N6020 X-2.2756 Y-0.732
N6025 X-2.2789 Y-0.7439
N6030 X-2.2792 Y-0.7563
N6035 X-2.2767 Y-0.7685
N6040 X-2.2713 Y-0.7796
N6045 X-2.2634 Y-0.7892
N6050 X-2.2535 Y-0.7966
N6055 X-2.2421 Y-0.8015
N6060 X-2.2298 Y-0.8035
N6065 X-2.2271 Y-0.8034 F89.4
N6070 X-2.2244 Y-0.8029
N6075 G3 X-2.2111 Y-0.7982 I-0.0106 J0.0501
N6080 X-2.2158 Y-0.7054 I-0.0238 J0.0453 F92.4
N6085 X-2.235 Y-0.7017 I-0.0191 J-0.0475 F89.4
N6090 G1 X-2.2567 Y-0.7026 F92.4
N6095 X-2.2642 Y-0.7041
N6100 X-2.2717 Y-0.7068
N6105 X-2.2766 Y-0.7093
N6110 X-2.2815 Y-0.7125
N6115 X-2.2867 Y-0.717
N6120 X-2.2913 Y-0.7223
N6125 X-2.2948 Y-0.7275
N6130 X-2.2983 Y-0.735
N6135 X-2.3005 Y-0.7425
N6140 X-2.3014 Y-0.75
N6145 X-2.3013 Y-0.7575
N6150 X-2.2999 Y-0.765
N6155 X-2.2973 Y-0.7725
N6160 X-2.2933 Y-0.78
N6165 X-2.2906 Y-0.7837
N6170 X-2.2867 Y-0.788
N6175 X-2.283 Y-0.7914
N6180 X-2.2792 Y-0.7941
N6185 X-2.2717 Y-0.7982
N6190 X-2.2642 Y-0.8009
N6195 X-2.2544 Y-0.8024
N6200 X-2.1124 Y-0.8085
N6205 G0 Z1.205
N6210 G1 X-3.1803 Y-1.0458 F500.
N6215 G0 Z0.8
N6220 G1 Z0.75 F89.4
N6225 X-3.18 Y-1.0456 Z0.7444
N6230 X-3.1792 Y-1.0451 Z0.7389
N6235 X-3.1779 Y-1.0442 Z0.7335
N6240 X-3.1762 Y-1.043 Z0.7283
N6245 X-3.1739 Y-1.0415 Z0.7234
N6250 X-3.1712 Y-1.0397 Z0.7188
N6255 X-3.1681 Y-1.0376 Z0.7147
N6260 X-3.1647 Y-1.0352 Z0.7109
N6265 X-3.1609 Y-1.0327 Z0.7077
N6270 X-3.1568 Y-1.0299 Z0.705
N6275 X-3.1525 Y-1.027 Z0.7028
N6280 X-3.1481 Y-1.024 Z0.7013
N6285 X-3.1435 Y-1.0209 Z0.7003
N6290 X-3.1389 Y-1.0177 Z0.7
N6295 G3 X-3.1259 Y-1.003 I-0.0222 J0.0327
N6300 G1 X-3.1109 Y-0.9714 F92.4
N6305 X-3.0959 Y-0.9435
N6310 X-3.0809 Y-0.922
N6315 X-3.0703 Y-0.9073
N6320 X-3.0659 Y-0.9023
N6325 X-3.036 Y-0.8725
N6330 X-3.0245 Y-0.8624
N6335 X-3.0196 Y-0.8578
N6340 X-3.0048 Y-0.8416
N6345 X-2.9889 Y-0.8211
N6350 X-2.9734 Y-0.7976
N6355 X-2.9601 Y-0.7732
N6360 X-2.9546 Y-0.7573
N6365 X-2.9517 Y-0.7407
N6370 X-2.9516 Y-0.7239
N6375 X-2.9544 Y-0.7073
N6380 X-2.9598 Y-0.6913
N6385 X-2.9678 Y-0.6765
N6390 X-2.9782 Y-0.6632
N6395 X-2.9906 Y-0.6518
N6400 G3 X-3.0083 Y-0.6438 I-0.0292 J-0.0406 F89.4
N6405 X-3.0681 Y-0.6793 I-0.0115 J-0.0487 F92.4
N6410 G1 X-3.1036 Y-0.8099
N6415 G3 X-3.0419 Y-0.8712 I0.0482 J-0.0131
N6420 X-3.0245 Y-0.8624 I-0.0134 J0.0482 F89.4
N6425 G1 X-3.006 Y-0.8468 F92.4
N6430 X-2.991 Y-0.8369
N6435 X-2.976 Y-0.828
N6440 X-2.961 Y-0.8199
N6445 X-2.9415 Y-0.8106
N6450 X-2.9354 Y-0.8074
N6455 X-2.929 Y-0.8033
N6460 X-2.923 Y-0.7988
N6465 X-2.9165 Y-0.7931
N6470 X-2.9078 Y-0.7819
N6475 X-2.9015 Y-0.7691
N6480 X-2.8981 Y-0.7553
N6485 X-2.8975 Y-0.7411
N6490 X-2.8999 Y-0.7271
N6495 X-2.9051 Y-0.7139
N6500 X-2.9129 Y-0.7021
N6505 X-2.923 Y-0.6921
N6510 X-2.9349 Y-0.6844
N6515 G3 X-2.9536 Y-0.6783 I-0.0343 J-0.0738 F89.4
N6520 X-2.965 Y-0.6769 I-0.0156 J-0.0799 F92.4
N6525 X-2.9604 Y-0.8156 I-0.0036 J-0.0695
N6530 X-2.9415 Y-0.8106 I-0.0082 J0.0692 F89.4
N6535 G1 X-2.9233 Y-0.8024 F92.4
N6540 X-2.9161 Y-0.7995
N6545 X-2.9011 Y-0.7943
N6550 X-2.8948 Y-0.7914
N6555 X-2.8884 Y-0.7875
N6560 X-2.8825 Y-0.7823
N6565 X-2.8796 Y-0.7791
N6570 X-2.875 Y-0.7725
N6575 X-2.8728 Y-0.7684
N6580 X-2.8711 Y-0.7643
N6585 X-2.8692 Y-0.7575
N6590 X-2.8682 Y-0.75
N6595 X-2.8684 Y-0.7425
N6600 X-2.8693 Y-0.7364
N6605 X-2.8722 Y-0.7275
N6610 X-2.8762 Y-0.72
N6615 X-2.8789 Y-0.7163
N6620 X-2.8821 Y-0.7125
N6625 X-2.8861 Y-0.7089
N6630 X-2.8936 Y-0.7035
N6635 X-2.936 Y-0.6839
N6640 X-2.946 Y-0.6787
N6645 X-2.9465 Y-0.6785 F89.4
N6650 X-2.9506 Y-0.6773
N6655 X-2.9546 Y-0.6758
N6660 X-2.9585 Y-0.6741
N6665 X-2.9623 Y-0.6721
N6670 X-2.964 Y-0.671
N6675 X-2.9743 Y-0.6648 F92.4
N6680 X-2.9762 Y-0.6637 F89.4
N6685 X-2.9798 Y-0.6613
N6690 X-2.9832 Y-0.6587
N6695 X-2.9863 Y-0.6558
N6700 X-2.9894 Y-0.6528
N6705 X-2.9896 Y-0.6526
N6710 X-3.0069 Y-0.6376 F92.4
N6715 X-3.021 Y-0.6247
N6720 X-3.0238 Y-0.6229 Z0.7003 F89.4
N6725 X-3.0265 Y-0.6211 Z0.7012
N6730 X-3.0291 Y-0.6194 Z0.7026
N6735 X-3.0314 Y-0.6179 Z0.7045
N6740 X-3.0337 Y-0.617 Z0.707
N6745 X-3.0355 Y-0.6162 Z0.7098
N6750 X-3.0369 Y-0.6157 Z0.7129
N6755 X-3.0377 Y-0.6153 Z0.7162
N6760 X-3.038 Y-0.6152 Z0.7197
N6765 G0 Z1.205
N6770 G1 X-3.0305 Y-0.7078 F500.
N6775 G0 Z0.83
N6780 G1 Z0.78 F89.4
N6785 X-3.0303 Y-0.7075 Z0.7744
N6790 X-3.0298 Y-0.7067 Z0.7689
N6795 X-3.029 Y-0.7054 Z0.7635
N6800 X-3.0279 Y-0.7035 Z0.7583
N6805 X-3.0266 Y-0.7012 Z0.7534
N6810 X-3.0249 Y-0.6984 Z0.7488
N6815 X-3.023 Y-0.6952 Z0.7447
N6820 X-3.0209 Y-0.6916 Z0.7409
N6825 X-3.0185 Y-0.6877 Z0.7377
N6830 X-3.016 Y-0.6835 Z0.735
N6835 X-3.0134 Y-0.679 Z0.7328
N6840 X-3.0106 Y-0.6744 Z0.7313
N6845 X-3.0078 Y-0.6696 Z0.7303
N6850 X-3.0049 Y-0.6648 Z0.73
N6855 G3 X-2.9994 Y-0.646 I-0.034 J0.0202
N6860 G1 Y-0.6338 F92.4
N6865 X-2.9943 Y-0.5854
N6870 X-2.9815 Y-0.5385
N6875 X-2.9714 Y-0.4909
N6880 X-2.9633 Y-0.4429
N6885 X-2.9562 Y-0.3948
N6890 X-2.9467 Y-0.3471
N6895 X-2.9305 Y-0.3012
N6900 X-2.9035 Y-0.2607
N6905 X-2.8688 Y-0.2267
N6910 X-2.8292 Y-0.1984
N6915 X-2.7865 Y-0.1751
N6920 X-2.7417 Y-0.156
N6925 X-2.6956 Y-0.1404
N6930 X-2.6487 Y-0.1278
N6935 X-2.6011 Y-0.1175
N6940 X-2.5532 Y-0.1092
N6945 X-2.505 Y-0.1025
N6950 X-2.4566 Y-0.0971
N6955 X-2.4082 Y-0.0928
N6960 X-2.3597 Y-0.0893
N6965 X-2.3111 Y-0.0864
N6970 X-2.2625 Y-0.0842
N6975 X-2.1653 Y-0.0809
N6980 X-2.068 Y-0.0788
N6985 X-1.922 Y-0.077
N6990 X-1.6788 Y-0.0756
N6995 X-1.3382 Y-0.0751
N7000 X-0.7379 Y-0.075
N7005 X-0.7196 Y-0.0736
N7010 X-0.7018 Y-0.0693
N7015 X-0.6849 Y-0.0623
N7020 X-0.6693 Y-0.0528
N7025 X-0.6554 Y-0.0409
N7030 X-0.6435 Y-0.027
N7035 X-0.6384 Y-0.0202
N7040 X-0.6234 Y-0.0038
N7045 X-0.6084 Y0.0103
N7050 X-0.5934 Y0.0218
N7055 X-0.5727 Y0.0365
N7060 X-0.5335 Y0.0615
N7065 X-0.524 Y0.0665
N7070 X-0.5035 Y0.0753
N7075 X-0.4735 Y0.0849
N7080 X-0.4436 Y0.0912
N7085 X-0.4136 Y0.0967
N7090 X-0.3986 Y0.0987
N7095 X-0.3836 Y0.0995
N7100 X-0.3686
N7105 X-0.3537 Y0.0988
N7110 X-0.3357 Y0.0965
N7115 X-0.3087 Y0.0917
N7120 X-0.2787 Y0.0855
N7125 X-0.2488 Y0.0762
N7130 X-0.226 Y0.0665
N7135 X-0.2188 Y0.0628
N7140 X-0.1773 Y0.0365
N7145 X-0.1559 Y0.0215
N7150 X-0.1439 Y0.012
N7155 X-0.1289 Y-0.0014
N7160 X-0.122 Y-0.0084
N7165 X-0.1092 Y-0.0234
N7170 X-0.0981 Y-0.0384
N7175 X-0.0839 Y-0.0591
N7180 X-0.0689 Y-0.0833
N7185 X-0.06 Y-0.0983
N7190 X-0.053 Y-0.1133
N7195 X-0.0472 Y-0.1283
N7200 X-0.0385 Y-0.1582
N7205 X-0.0324 Y-0.1882
N7210 X-0.0274 Y-0.2182
N7215 X-0.0261 Y-0.2331
N7220 X-0.0254 Y-0.2481
N7225 X-0.0258 Y-0.2631
N7230 X-0.027 Y-0.2781
N7235 X-0.029 Y-0.2931
N7240 X-0.0347 Y-0.323
N7245 X-0.0413 Y-0.353
N7250 X-0.0513 Y-0.383
N7255 X-0.054 Y-0.3893
N7260 X-0.066 Y-0.4129
N7265 X-0.0853 Y-0.4429
N7270 X-0.1066 Y-0.4728
N7275 X-0.1139 Y-0.4826
N7280 X-0.1184 Y-0.4878
N7285 X-0.1439 Y-0.5124
N7290 X-0.1506 Y-0.5178
N7295 X-0.1888 Y-0.5441
N7300 X-0.2191 Y-0.5627
N7305 X-0.2488 Y-0.5762
N7310 X-0.2787 Y-0.5855
N7315 X-0.3138 Y-0.5927
N7320 X-0.3387 Y-0.597
N7325 X-0.3537 Y-0.5986
N7330 X-0.3686 Y-0.5995
N7335 X-0.3836 Y-0.5994
N7340 X-0.3986 Y-0.5984
N7345 X-0.4136 Y-0.5967
N7350 X-0.4436 Y-0.5912
N7355 X-0.4735 Y-0.5849
N7360 X-0.5035 Y-0.5754
N7365 X-0.5335 Y-0.5612
N7370 X-0.5485 Y-0.5522
N7375 X-0.5725 Y-0.539
N7380 X-0.5969 Y-0.5274
N7385 X-0.6219 Y-0.5172
N7390 X-0.6474 Y-0.5083
N7395 X-0.6785 Y-0.499
N7400 X-0.7138 Y-0.4902
N7405 X-0.7488 Y-0.4829
N7410 X-0.7909 Y-0.4757
N7415 X-0.8316 Y-0.4702
N7420 X-0.8812 Y-0.4649
N7425 X-0.9268 Y-0.4612
N7430 X-0.9835 Y-0.4579
N7435 X-1.0578 Y-0.4552
N7440 X-1.1239 Y-0.454
N7445 X-1.2139 Y-0.4537
N7450 X-1.3112 Y-0.4546
N7455 X-1.4571 Y-0.4577
N7460 X-1.6516 Y-0.4633
N7465 X-2.0406 Y-0.4766
N7470 X-2.0857 Y-0.4789
N7475 X-2.1186 Y-0.4817
N7480 X-2.151 Y-0.4858
N7485 X-2.1776 Y-0.4904
N7490 X-2.2039 Y-0.4965
N7495 X-2.2246 Y-0.5024
N7500 X-2.2451 Y-0.5094
N7505 X-2.2651 Y-0.5176
N7510 X-2.2845 Y-0.5269
N7515 X-2.3033 Y-0.5376
N7520 X-2.3213 Y-0.5496
N7525 X-2.3341 Y-0.5594
N7530 X-2.3464 Y-0.57
N7535 X-2.358 Y-0.5813
N7540 X-2.3688 Y-0.5933
N7545 X-2.3789 Y-0.6061
N7550 X-2.388 Y-0.6195
N7555 X-2.3961 Y-0.6335
N7560 X-2.4032 Y-0.648
N7565 X-2.4092 Y-0.6631
N7570 X-2.414 Y-0.6785
N7575 X-2.4154 Y-0.6838
N7580 X-2.4185 Y-0.6996
N7585 X-2.4204 Y-0.7157
N7590 X-2.4209 Y-0.7319
N7595 X-2.42 Y-0.7481
N7600 X-2.4177 Y-0.7641
N7605 X-2.414 Y-0.7799
N7610 X-2.4088 Y-0.7953
N7615 X-2.4023 Y-0.8101
N7620 X-2.3945 Y-0.8242
N7625 X-2.3853 Y-0.8376
N7630 X-2.375 Y-0.8501
N7635 X-2.3637 Y-0.8617
N7640 X-2.3516 Y-0.8725
N7645 X-2.3347 Y-0.8859
N7650 X-2.3169 Y-0.8981
N7655 X-2.2984 Y-0.9094
N7660 X-2.2746 Y-0.9221
N7665 X-2.2502 Y-0.9336
N7670 X-2.2253 Y-0.944
N7675 X-2.1939 Y-0.9554
N7680 X-2.1633 Y-0.9652
N7685 X-2.127 Y-0.9754
N7690 X-2.0925 Y-0.9838
N7695 X-2.0514 Y-0.9926
N7700 X-2.0009 Y-1.0019
N7705 X-1.954 Y-1.0092
N7710 X-1.8953 Y-1.0171
N7715 X-1.8172 Y-1.0259
N7720 X-1.7461 Y-1.0326
N7725 X-1.6524 Y-1.04
N7730 X-1.5553 Y-1.0464
N7735 X-1.4096 Y-1.0547
N7740 X-1.1666 Y-1.0665
N7745 X-0.632 Y-1.0901
N7750 X-0.5834 Y-1.0922
N7755 X-0.3889 Y-1.1008
N7760 X-0.3406 Y-1.106
N7765 X-0.2936 Y-1.1186
N7770 X-0.2809 Y-1.1269
N7775 X-0.2713 Y-1.1344
N7780 X-0.2626 Y-1.1429
N7785 X-0.2549 Y-1.1523
N7790 X-0.2481 Y-1.1624
N7795 X-0.2425 Y-1.1732
N7800 X-0.238 Y-1.1845
N7805 X-0.2347 Y-1.1962
N7810 X-0.2326 Y-1.2082
N7815 X-0.2318 Y-1.2203
N7820 X-0.2322 Y-1.2325
N7825 X-0.234 Y-1.2445
N7830 X-0.2369 Y-1.2563
N7835 X-0.2411 Y-1.2677
N7840 X-0.2465 Y-1.2787
N7845 X-0.2529 Y-1.289
N7850 X-0.2604 Y-1.2985
N7855 X-0.2689 Y-1.3073
N7860 X-0.2782 Y-1.3151
N7865 X-0.3185 Y-1.3424
N7870 X-0.3655 Y-1.3548
N7875 X-0.4131 Y-1.3649
N7880 X-0.4611 Y-1.3731
N7885 X-0.5093 Y-1.3797
N7890 X-0.5576 Y-1.385
N7895 X-0.6061 Y-1.3893
N7900 X-0.6546 Y-1.3928
N7905 X-0.7032 Y-1.3955
N7910 X-0.7518 Y-1.3978
N7915 X-0.849 Y-1.401
N7920 X-0.9463 Y-1.4031
N7925 X-1.0923 Y-1.405
N7930 X-1.3355 Y-1.4063
N7935 X-1.7247 Y-1.4069
N7940 X-2.2604 Y-1.407
N7945 X-2.2785 Y-1.4084
N7950 X-2.2961 Y-1.4126
N7955 X-2.3129 Y-1.4194
N7960 X-2.3284 Y-1.4288
N7965 X-2.3422 Y-1.4405
N7970 X-2.3541 Y-1.4541
N7975 X-2.3616 Y-1.4643
N7980 X-2.3722 Y-1.4766
N7985 X-2.3766 Y-1.4812
N7990 X-2.3916 Y-1.4952
N7995 X-2.4066 Y-1.5067
N8000 X-2.4366 Y-1.5277
N8005 X-2.4515 Y-1.5374
N8010 X-2.4665 Y-1.5462
N8015 X-2.4965 Y-1.5605
N8020 X-2.5144 Y-1.5665
N8025 X-2.5265 Y-1.5699
N8030 X-2.5564 Y-1.5762
N8035 X-2.5864 Y-1.5817
N8040 X-2.6014 Y-1.5834
N8045 X-2.6164 Y-1.5844
N8050 X-2.6314 Y-1.5845
N8055 X-2.6463 Y-1.5836
N8060 X-2.6642 Y-1.5815
N8065 X-2.6913 Y-1.5767
N8070 X-2.7213 Y-1.5705
N8075 X-2.7363 Y-1.5662
N8080 X-2.7512 Y-1.5614
N8085 X-2.7812 Y-1.5475
N8090 X-2.7998 Y-1.5365
N8095 X-2.8112 Y-1.5292
N8100 X-2.8439 Y-1.5066
N8105 X-2.8561 Y-1.4969
N8110 X-2.8824 Y-1.472
N8115 X-2.9014 Y-1.4466
N8120 X-2.9122 Y-1.4317
N8125 X-2.9317 Y-1.4017
N8130 X-2.946 Y-1.3743
N8135 X-2.9577 Y-1.3418
N8140 X-2.9645 Y-1.3118
N8145 X-2.9704 Y-1.2818
N8150 X-2.9725 Y-1.2669
N8155 X-2.974 Y-1.2519
N8160 X-2.9746 Y-1.2369
N8165 X-2.9742 Y-1.2219
N8170 X-2.973 Y-1.2069
N8175 X-2.9684 Y-1.177
N8180 X-2.9624 Y-1.147
N8185 X-2.9541 Y-1.117
N8190 X-2.946 Y-1.0959
N8195 X-2.942 Y-1.0871
N8200 X-2.9244 Y-1.0571
N8205 X-2.9148 Y-1.0421
N8210 X-2.9011 Y-1.022
N8215 X-2.8861 Y-1.0029
N8220 X-2.8815 Y-0.9972
N8225 X-2.8711 Y-0.9864
N8230 X-2.8495 Y-0.9672
N8235 X-2.8262 Y-0.9508
N8240 X-2.7962 Y-0.9316
N8245 X-2.7811 Y-0.9223
N8250 X-2.7512 Y-0.9088
N8255 X-2.7213 Y-0.8995
N8260 X-2.6763 Y-0.8904
N8265 X-2.6613 Y-0.8879
N8270 X-2.6463 Y-0.8864
N8275 X-2.6314 Y-0.8855
N8280 X-2.6164 Y-0.8856
N8285 X-2.6014 Y-0.8866
N8290 X-2.5864 Y-0.8882
N8295 X-2.5636 Y-0.8923
N8300 X-2.5265 Y-0.9001
N8305 X-2.4965 Y-0.9097
N8310 X-2.4665 Y-0.9234
N8315 X-2.4216 Y-0.9523
N8320 X-2.4008 Y-0.9672
N8325 X-2.3916 Y-0.9749
N8330 X-2.3766 Y-0.9885
N8335 X-2.3685 Y-0.9972
N8340 X-2.3562 Y-1.0122
N8345 X-2.3454 Y-1.0272
N8350 X-2.3317 Y-1.0475
N8355 X-2.3167 Y-1.0722
N8360 X-2.3081 Y-1.0871
N8365 X-2.3013 Y-1.1021
N8370 X-2.2959 Y-1.117
N8375 X-2.2876 Y-1.147
N8380 X-2.2816 Y-1.177
N8385 X-2.277 Y-1.2069
N8390 X-2.2758 Y-1.2219
N8395 X-2.2754 Y-1.2369
N8400 X-2.276 Y-1.2519
N8405 X-2.2775 Y-1.2669
N8410 X-2.2796 Y-1.2818
N8415 X-2.2867 Y-1.3173
N8420 X-2.2889 Y-1.3268
N8425 G3 X-2.2887 Y-1.3463 I0.0491 J-0.0093 F89.4
N8430 X-2.2193 Y-1.3817 I0.0489 J0.0102 F92.4
N8435 G1 X-0.5563 Y-0.6392
N8440 G3 X-0.5348 Y-0.5662 I-0.0204 J0.0457
N8445 X-0.5485 Y-0.5522 I-0.0419 J-0.0273 F89.4
N8450 G1 X-0.5634 Y-0.5427 F92.4
N8455 X-0.5989 Y-0.5178
N8460 X-0.6084 Y-0.5104
N8465 X-0.6312 Y-0.4878
N8470 X-0.6384 Y-0.4799
N8475 X-0.6648 Y-0.4429
N8480 X-0.6839 Y-0.4129
N8485 X-0.6986 Y-0.383
N8490 X-0.7087 Y-0.353
N8495 X-0.7153 Y-0.323
N8500 X-0.721 Y-0.2931
N8505 X-0.723 Y-0.2781
N8510 X-0.7242 Y-0.2631
N8515 X-0.7246 Y-0.2481
N8520 X-0.7239 Y-0.2331
N8525 X-0.7226 Y-0.2182
N8530 X-0.7176 Y-0.1882
N8535 X-0.7115 Y-0.1582
N8540 X-0.7024 Y-0.1272
N8545 X-0.6983 Y-0.1163
N8550 X-0.6899 Y-0.0983
N8555 X-0.6811 Y-0.0833
N8560 X-0.6683 Y-0.0625
N8565 X-0.6473 Y-0.0321
N8570 X-0.6435 Y-0.027
N8575 G3 X-0.636 Y-0.009 I-0.0414 J0.028 F89.4
N8580 G1 X-0.6349 Y-0.0035 Z0.7303
N8585 X-0.6338 Y0.0019 Z0.7313
N8590 X-0.6327 Y0.0072 Z0.7328
N8595 X-0.6316 Y0.0122 Z0.735
N8600 X-0.6307 Y0.0171 Z0.7377
N8605 X-0.6297 Y0.0215 Z0.7409
N8610 X-0.6289 Y0.0256 Z0.7447
N8615 X-0.6282 Y0.0293 Z0.7488
N8620 X-0.6275 Y0.0325 Z0.7534
N8625 X-0.627 Y0.0351 Z0.7583
N8630 X-0.6265 Y0.0372 Z0.7635
N8635 X-0.6262 Y0.0387 Z0.7689
N8640 X-0.626 Y0.0397 Z0.7744
N8645 Y0.04 Z0.78
N8650 G0 Z1.205
N8655 G1 X-3.0346 Y-0.4619 F500.
N8660 G0 Z0.83
N8665 G1 Z0.78 F89.4
N8670 X-3.0343 Y-0.4621 Z0.7744
N8675 X-3.0335 Y-0.4625 Z0.7689
N8680 X-3.0321 Y-0.4632 Z0.7635
N8685 X-3.0301 Y-0.4641 Z0.7583
N8690 X-3.0277 Y-0.4653 Z0.7534
N8695 X-3.0248 Y-0.4668 Z0.7488
N8700 X-3.0215 Y-0.4684 Z0.7447
N8705 X-3.0177 Y-0.4703 Z0.7409
N8710 X-3.0136 Y-0.4723 Z0.7377
N8715 X-3.0092 Y-0.4745 Z0.735
N8720 X-3.0046 Y-0.4768 Z0.7328
N8725 X-2.9998 Y-0.4792 Z0.7313
N8730 X-2.9948 Y-0.4817 Z0.7303
N8735 X-2.9898 Y-0.4841 Z0.73
N8740 G3 X-2.9714 Y-0.4909 I0.0405 J0.0817
N8745 G1 X-2.9684 Y-0.4916 F92.4
N8750 X-2.963 Y-0.4909
N8755 X-2.9526 Y-0.4881
N8760 X-2.9425 Y-0.4842
N8765 X-2.8446 Y-0.4408
N8770 X-2.7997 Y-0.422
N8775 X-2.7543 Y-0.4047
N8780 X-2.7167 Y-0.3923
N8785 G3 X-2.6999 Y-0.3824 I-0.0164 J0.0472 F89.4
N8790 G1 X-2.6957 Y-0.3787 Z0.7303
N8795 X-2.6916 Y-0.375 Z0.7313
N8800 X-2.6876 Y-0.3714 Z0.7328
N8805 X-2.6837 Y-0.368 Z0.735
N8810 X-2.68 Y-0.3647 Z0.7377
N8815 X-2.6766 Y-0.3617 Z0.7409
N8820 X-2.6735 Y-0.3589 Z0.7447
N8825 X-2.6707 Y-0.3564 Z0.7488
N8830 X-2.6683 Y-0.3543 Z0.7534
N8835 X-2.6663 Y-0.3525 Z0.7583
N8840 X-2.6647 Y-0.351 Z0.7635
N8845 X-2.6635 Y-0.35 Z0.7689
N8850 X-2.6628 Y-0.3494 Z0.7744
N8855 X-2.6626 Y-0.3492 Z0.78
N8860 G0 Z1.605
N8865 M9
N8870 M5
N8875 G53 G0 Z0.

(Adaptive2)
N8880 M1
N8885 T2 M6
N8890 S6000 M3
N8895 G54
N8900 G17 G90
N8905 M8
N8910 G1 X-3.1576 Y-0.9784 F500.
N8915 G0 G43 Z1.605 H2
N8920 T5
N8925 G0 Z1.205
N8930 Z0.4204
N8935 G1 Z0.3954 F52.8
N8940 X-3.1573 Y-0.9785 Z0.3915
N8945 X-3.1564 Y-0.9787 Z0.3877
N8950 X-3.155 Y-0.979 Z0.384
N8955 X-3.153 Y-0.9795 Z0.3807
N8960 X-3.1505 Y-0.9802 Z0.3777
N8965 X-3.1476 Y-0.9809 Z0.3752
N8970 X-3.1444 Y-0.9817 Z0.3731
N8975 X-3.1409 Y-0.9826 Z0.3716
N8980 X-3.1372 Y-0.9835 Z0.3707
N8985 X-3.1334 Y-0.9845 Z0.3704
N8990 X-3.1313 Y-0.9847
N8995 X-3.1292 Y-0.9843
N9000 X-3.1273 Y-0.9834
N9005 X-3.1256 Y-0.9821
N9010 X-3.1245 Y-0.9803
N9015 X-3.1145 Y-0.9602
N9020 X-3.1009 Y-0.935
N9025 X-3.0927 Y-0.922
N9030 X-3.0898 Y-0.9182
N9035 X-3.0848 Y-0.9113
N9040 X-3.0772 Y-0.899
N9045 X-3.0691 Y-0.8832
N9050 X-3.0605 Y-0.8625
N9055 X-3.0516 Y-0.8347
N9060 X-3.0432 Y-0.7987
N9065 X-3.0374 Y-0.7621
N9070 X-3.0334 Y-0.7253
N9075 X-3.0306 Y-0.6884
N9080 X-3.0297 Y-0.6697
N9085 X-3.0304 Y-0.657
N9090 X-3.0339 Y-0.6447
N9095 X-3.04 Y-0.6335
N9100 X-3.0484 Y-0.6239
N9105 X-3.0758 Y-0.5977
N9110 X-3.0843 Y-0.5886
N9115 X-3.0927 Y-0.578
N9120 X-3.1011 Y-0.5646
N9125 X-3.1076 Y-0.5525
N9130 G3 X-3.1542 Y-0.5667 I-0.0216 J-0.0127
N9135 G1 X-3.1336 Y-0.9033
N9140 G3 X-3.0898 Y-0.9182 I0.025 J0.0015
N9145 G1 X-3.0828 Y-0.9098
N9150 X-3.0748 Y-0.9014
N9155 X-3.0484 Y-0.8761
N9160 X-3.0392 Y-0.8677
N9165 X-3.0279 Y-0.8593
N9170 X-3.0214 Y-0.8542
N9175 X-3.0136 Y-0.8469
N9180 X-3.0056 Y-0.838
N9185 X-2.9967 Y-0.8264
N9190 X-2.9877 Y-0.8126
N9195 X-2.978 Y-0.7947
N9200 X-2.9686 Y-0.7735
N9205 X-2.9615 Y-0.7531
N9210 X-2.957 Y-0.7358
N9215 X-2.9551 Y-0.725
N9220 X-2.9543 Y-0.7124
N9225 X-2.9562 Y-0.6999
N9230 X-2.9608 Y-0.6881
N9235 X-2.9678 Y-0.6775
N9240 X-2.9769 Y-0.6687
N9245 X-2.9877 Y-0.6621
N9250 X-3.017 Y-0.6479
N9255 X-3.0279 Y-0.6407
N9260 X-3.0401 Y-0.6315
N9265 X-3.0484 Y-0.6239
N9270 G3 X-3.0895 Y-0.6458 I-0.0163 J-0.019
N9275 G1 X-3.0666 Y-0.8414
N9280 G3 X-3.0279 Y-0.8593 I0.0248 J0.0029
N9285 G1 X-3.017 Y-0.8521
N9290 X-2.9918 Y-0.8398
N9295 X-2.9666 Y-0.8282
N9300 X-2.961 Y-0.8257
N9305 X-2.9541 Y-0.8219
N9310 X-2.9465 Y-0.8168
N9315 X-2.939 Y-0.811
N9320 X-2.9318 Y-0.8043
N9325 X-2.9247 Y-0.7966
N9330 X-2.9184 Y-0.7887
N9335 X-2.9131 Y-0.7807
N9340 X-2.908 Y-0.7715
N9345 X-2.9041 Y-0.7628
N9350 X-2.9007 Y-0.7535
N9355 X-2.8994 Y-0.7486
N9360 X-2.8975 Y-0.7358
N9365 X-2.8986 Y-0.723
N9370 X-2.9026 Y-0.7108
N9375 X-2.9093 Y-0.6999
N9380 X-2.9183 Y-0.6907
N9385 X-2.9292 Y-0.6839
N9390 X-2.9414 Y-0.6798
N9395 X-2.9582 Y-0.6749
N9400 G3 X-2.9893 Y-0.6967 I-0.0063 J-0.0242
N9405 G1 X-2.9996 Y-0.8021
N9410 G3 X-2.9666 Y-0.8282 I0.0249 J-0.0024
N9415 G1 X-2.9582 Y-0.8251
N9420 X-2.9414 Y-0.8202
N9425 X-2.933 Y-0.8184
N9430 X-2.9162 Y-0.8161
N9435 X-2.9108 Y-0.8152
N9440 X-2.9055 Y-0.8136
N9445 X-2.9 Y-0.8115
N9450 X-2.8945 Y-0.8089
N9455 X-2.889 Y-0.8057
N9460 X-2.8833 Y-0.8017
N9465 X-2.8781 Y-0.7974
N9470 X-2.8734 Y-0.7929
N9475 X-2.8684 Y-0.7872
N9480 X-2.8641 Y-0.7815
N9485 X-2.8605 Y-0.7757
N9490 X-2.8568 Y-0.7688
N9495 X-2.8539 Y-0.7618
N9500 X-2.8515 Y-0.7545
N9505 X-2.8499 Y-0.7428
N9510 X-2.8508 Y-0.731
N9515 X-2.8542 Y-0.7197
N9520 X-2.8599 Y-0.7094
N9525 X-2.8676 Y-0.7005
N9530 X-2.8771 Y-0.6934
N9535 X-2.8878 Y-0.6885
N9540 X-2.8994 Y-0.6859
N9545 X-2.933 Y-0.6816
N9550 X-2.9414 Y-0.6798
N9555 G3 X-2.9696 Y-0.7119 I-0.0044 J-0.0246
N9560 G1 X-2.9422 Y-0.7987
N9565 G3 X-2.9162 Y-0.8161 I0.0238 J0.0075
N9570 G1 X-2.8909 Y-0.8132
N9575 X-2.8741 Y-0.8122
N9580 X-2.8695 Y-0.8121
N9585 X-2.8641 Y-0.8118
N9590 X-2.8588 Y-0.8107
N9595 X-2.8537 Y-0.8091
N9600 X-2.8487 Y-0.8071
N9605 X-2.8438 Y-0.8046
N9610 X-2.8388 Y-0.8015
N9615 X-2.8342 Y-0.7982
N9620 X-2.8298 Y-0.7944
N9625 X-2.8252 Y-0.7898
N9630 X-2.8212 Y-0.785
N9635 X-2.8176 Y-0.78
N9640 X-2.814 Y-0.774
N9645 X-2.8111 Y-0.768
N9650 X-2.8086 Y-0.7618
N9655 X-2.8064 Y-0.7547
N9660 X-2.8047 Y-0.7461
N9665 X-2.8044 Y-0.735
N9670 X-2.8065 Y-0.724
N9675 X-2.8109 Y-0.7138
N9680 X-2.8174 Y-0.7048
N9685 X-2.8258 Y-0.6973
N9690 X-2.8355 Y-0.6919
N9695 X-2.8462 Y-0.6887
N9700 X-2.8573 Y-0.6879
N9705 X-2.8825 Y-0.6875
N9710 X-2.8994 Y-0.6859
N9715 G3 X-2.9243 Y-0.7205 I-0.0019 J-0.0249
N9720 G1 X-2.8922 Y-0.7968
N9725 G3 X-2.8695 Y-0.8121 I0.023 J0.0097
N9730 G1 X-2.8573
N9735 X-2.8296 Y-0.8133
N9740 X-2.8242
N9745 X-2.8188 Y-0.8127
N9750 X-2.8135 Y-0.8116
N9755 X-2.8084 Y-0.81
N9760 X-2.8034 Y-0.8079
N9765 X-2.7982 Y-0.8053
N9770 X-2.7934 Y-0.8024
N9775 X-2.7885 Y-0.7988
N9780 X-2.7836 Y-0.7946
N9785 X-2.7793 Y-0.7902
N9790 X-2.7752 Y-0.7853
N9795 X-2.7712 Y-0.7797
N9800 X-2.7679 Y-0.7742
N9805 X-2.7649 Y-0.7681
N9810 X-2.7623 Y-0.7614
N9815 X-2.7603 Y-0.7549
N9820 X-2.7587 Y-0.7477
N9825 X-2.7584 Y-0.7358
N9830 X-2.7607 Y-0.7241
N9835 X-2.7654 Y-0.7131
N9840 X-2.7725 Y-0.7035
N9845 X-2.7815 Y-0.6957
N9850 X-2.7919 Y-0.69
N9855 X-2.8034 Y-0.6867
N9860 X-2.8153 Y-0.6859
N9865 X-2.8573 Y-0.6879
N9870 G3 X-2.879 Y-0.7216 I0.0018 J-0.0249
N9875 G1 X-2.8509 Y-0.7971
N9880 G3 X-2.8296 Y-0.8133 I0.0234 J0.0087
N9885 G1 X-2.7855 Y-0.8155
N9890 X-2.7801
N9895 X-2.7747 Y-0.8151
N9900 X-2.7694 Y-0.8141
N9905 X-2.7642 Y-0.8126
N9910 X-2.7591 Y-0.8106
N9915 X-2.7538 Y-0.808
N9920 X-2.7488 Y-0.8051
N9925 X-2.744 Y-0.8018
N9930 X-2.7389 Y-0.7977
N9935 X-2.7344 Y-0.7933
N9940 X-2.7303 Y-0.7886
N9945 X-2.7261 Y-0.783
N9950 X-2.7225 Y-0.7772
N9955 X-2.7194 Y-0.7714
N9960 X-2.7165 Y-0.7645
N9965 X-2.7142 Y-0.7577
N9970 X-2.7126 Y-0.751
N9975 X-2.7114 Y-0.7433
N9980 X-2.7117 Y-0.7316
N9985 X-2.7145 Y-0.7202
N9990 X-2.7196 Y-0.7096
N9995 X-2.7268 Y-0.7004
N10000 X-2.7358 Y-0.6929
N10005 X-2.7462 Y-0.6874
N10010 X-2.7576 Y-0.6843
N10015 X-2.7693 Y-0.6836
N10020 X-2.8153 Y-0.6859
N10025 G3 X-2.8366 Y-0.7196 I0.0021 J-0.0249
N10030 G1 X-2.8068 Y-0.7994
N10035 G3 X-2.7855 Y-0.8155 I0.0234 J0.0088
N10040 G1 X-2.7397 Y-0.8178
N10045 X-2.7343
N10050 X-2.7289 Y-0.8174
N10055 X-2.7236 Y-0.8164
N10060 X-2.7184 Y-0.8149
N10065 X-2.7133 Y-0.813
N10070 X-2.7079 Y-0.8104
N10075 X-2.7024 Y-0.8073
N10080 X-2.6972 Y-0.8037
N10085 X-2.6924 Y-0.7998
N10090 X-2.6874 Y-0.795
N10095 X-2.6829 Y-0.79
N10100 X-2.6789 Y-0.7847
N10105 X-2.6749 Y-0.7784
N10110 X-2.6716 Y-0.7722
N10115 X-2.6688 Y-0.7657
N10120 X-2.6663 Y-0.7583
N10125 X-2.6645 Y-0.7512
N10130 X-2.6632 Y-0.7431
N10135 X-2.6635 Y-0.731
N10140 X-2.6663 Y-0.7192
N10145 X-2.6715 Y-0.7083
N10150 X-2.679 Y-0.6987
N10155 X-2.6883 Y-0.6909
N10160 X-2.699 Y-0.6852
N10165 X-2.7107 Y-0.682
N10170 X-2.7229 Y-0.6813
N10175 X-2.7693 Y-0.6836
N10180 G3 X-2.7908 Y-0.7168 I0.0021 J-0.0249
N10185 G1 X-2.7611 Y-0.8012
N10190 G3 X-2.7397 Y-0.8178 I0.0236 J0.0083
N10195 G1 X-2.693 Y-0.8202
N10200 X-2.6876
N10205 X-2.6822 Y-0.8197
N10210 X-2.6769 Y-0.8188
N10215 X-2.6717 Y-0.8174
N10220 X-2.6664 Y-0.8154
N10225 X-2.6609 Y-0.8129
N10230 X-2.6553 Y-0.8098
N10235 X-2.6499 Y-0.8061
N10240 X-2.6449 Y-0.8022
N10245 X-2.6397 Y-0.7973
N10250 X-2.6349 Y-0.7921
N10255 X-2.6308 Y-0.7868
N10260 X-2.6266 Y-0.7804
N10265 X-2.6231 Y-0.7739
N10270 X-2.6202 Y-0.7674
N10275 X-2.6175 Y-0.7598
N10280 X-2.6156 Y-0.7524
N10285 X-2.6142 Y-0.745
N10290 X-2.6134 Y-0.7359
N10295 X-2.6144 Y-0.7244
N10300 X-2.6177 Y-0.7134
N10305 X-2.6232 Y-0.7033
N10310 X-2.6306 Y-0.6945
N10315 X-2.6396 Y-0.6874
N10320 X-2.6499 Y-0.6823
N10325 X-2.661 Y-0.6794
N10330 X-2.6724 Y-0.6788
N10335 X-2.7229 Y-0.6813
N10340 G3 X-2.7444 Y-0.7142 I0.0021 J-0.0249
N10345 G1 X-2.7146 Y-0.8032
N10350 G3 X-2.693 Y-0.8202 I0.0237 J0.0079
N10355 G1 X-2.6426 Y-0.8227
N10360 X-2.6372
N10365 X-2.6318 Y-0.822
N10370 X-2.6266 Y-0.8209
N10375 X-2.6212 Y-0.8192
N10380 X-2.6157 Y-0.817
N10385 X-2.6101 Y-0.8142
N10390 X-2.6043 Y-0.8107
N10395 X-2.5985 Y-0.8066
N10400 X-2.593 Y-0.8019
N10405 X-2.588 Y-0.797
N10410 X-2.5829 Y-0.791
N10415 X-2.5785 Y-0.7849
N10420 X-2.5746 Y-0.7786
N10425 X-2.5709 Y-0.7713
N10430 X-2.568 Y-0.7642
N10435 X-2.5656 Y-0.7566
N10440 X-2.5638 Y-0.7486
N10445 X-2.5626 Y-0.7409
N10450 X-2.5621 Y-0.7324
N10455 X-2.5638 Y-0.7195
N10460 X-2.5683 Y-0.7072
N10465 X-2.5756 Y-0.6964
N10470 X-2.5851 Y-0.6874
N10475 X-2.5964 Y-0.6809
N10480 X-2.6089 Y-0.6771
N10485 X-2.6219 Y-0.6763
N10490 X-2.6724 Y-0.6788
N10495 G3 X-2.6941 Y-0.7113 I0.0021 J-0.0249
N10500 G1 X-2.6643 Y-0.8053
N10505 G3 X-2.6426 Y-0.8227 I0.0238 J0.0076
N10510 G1 X-2.5942 Y-0.8251
N10515 X-2.5888
N10520 X-2.5835 Y-0.8246
N10525 X-2.5782 Y-0.8235
N10530 X-2.5727 Y-0.822
N10535 X-2.567 Y-0.8199
N10540 X-2.5613 Y-0.8172
N10545 X-2.5554 Y-0.8139
N10550 X-2.5494 Y-0.8098
N10555 X-2.5435 Y-0.8051
N10560 X-2.5379 Y-0.7998
N10565 X-2.533 Y-0.7944
N10570 X-2.528 Y-0.7878
N10575 X-2.5236 Y-0.7811
N10580 X-2.52 Y-0.7744
N10585 X-2.5166 Y-0.7666
N10590 X-2.5139 Y-0.7588
N10595 X-2.5119 Y-0.7512
N10600 X-2.5105 Y-0.7427
N10605 X-2.5097 Y-0.7326
N10610 X-2.5107 Y-0.7208
N10615 X-2.5142 Y-0.7094
N10620 X-2.5199 Y-0.699
N10625 X-2.5276 Y-0.6899
N10630 X-2.5369 Y-0.6826
N10635 X-2.5476 Y-0.6774
N10640 X-2.5591 Y-0.6743
N10645 X-2.5709 Y-0.6737
N10650 X-2.6219 Y-0.6763
N10655 G3 X-2.6439 Y-0.7079 I0.0021 J-0.0249
N10660 G1 X-2.6162 Y-0.8069
N10665 G3 X-2.5942 Y-0.8251 I0.0241 J0.0067
N10670 G1 X-2.5438 Y-0.8276
N10675 X-2.5384
N10680 X-2.533 Y-0.8271
N10685 X-2.5277 Y-0.8262
N10690 X-2.5222 Y-0.8247
N10695 X-2.5163 Y-0.8226
N10700 X-2.5104 Y-0.82
N10705 X-2.5044 Y-0.8167
N10710 X-2.4982 Y-0.8126
N10715 X-2.4921 Y-0.8078
N10720 X-2.4863 Y-0.8025
N10725 X-2.4811 Y-0.7968
N10730 X-2.4758 Y-0.7901
N10735 X-2.4713 Y-0.7834
N10740 X-2.4674 Y-0.7763
N10745 X-2.4637 Y-0.7683
N10750 X-2.461 Y-0.7607
N10755 X-2.4587 Y-0.7523
N10760 X-2.4571 Y-0.7437
N10765 X-2.4563 Y-0.7356
N10770 X-2.4561 Y-0.726
N10775 X-2.4582 Y-0.7132
N10780 X-2.4632 Y-0.7012
N10785 X-2.4707 Y-0.6905
N10790 X-2.4804 Y-0.6818
N10795 X-2.4917 Y-0.6755
N10800 X-2.5042 Y-0.6718
N10805 X-2.5172 Y-0.671
N10810 X-2.5709 Y-0.6737
N10815 G3 X-2.593 Y-0.7049 I0.0021 J-0.0249
N10820 G1 X-2.5659 Y-0.809
N10825 G3 X-2.5438 Y-0.8276 I0.0242 J0.0063
N10830 G1 X-2.4913 Y-0.8303
N10835 X-2.4859
N10840 X-2.4805 Y-0.8297
N10845 X-2.4752 Y-0.8288
N10850 X-2.4695 Y-0.8272
N10855 X-2.4635 Y-0.8251
N10860 X-2.4575 Y-0.8224
N10865 X-2.4513 Y-0.819
N10870 X-2.4449 Y-0.8148
N10875 X-2.4387 Y-0.8099
N10880 X-2.4326 Y-0.8043
N10885 X-2.4267 Y-0.7979
N10890 X-2.4217 Y-0.7915
N10895 X-2.4168 Y-0.7841
N10900 X-2.4125 Y-0.7763
N10905 X-2.4091 Y-0.7688
N10910 X-2.406 Y-0.7602
N10915 X-2.4037 Y-0.7516
N10920 X-2.4021 Y-0.7434
N10925 X-2.4011 Y-0.7341
N10930 Y-0.7232
N10935 X-2.4032 Y-0.7104
N10940 X-2.4082 Y-0.6984
N10945 X-2.4157 Y-0.6878
N10950 X-2.4254 Y-0.6791
N10955 X-2.4368 Y-0.6728
N10960 X-2.4492 Y-0.6691
N10965 X-2.4622 Y-0.6683
N10970 X-2.5172 Y-0.671
N10975 G3 X-2.5394 Y-0.7017 I0.0021 J-0.0249
N10980 G1 X-2.5135 Y-0.8111
N10985 G3 X-2.4913 Y-0.8303 I0.0243 J0.0058
N10990 G1 X-2.4371 Y-0.833
N10995 X-2.4317
N11000 X-2.4263 Y-0.8324
N11005 X-2.4208 Y-0.8313
N11010 X-2.4149 Y-0.8296
N11015 X-2.4087 Y-0.8274
N11020 X-2.4025 Y-0.8245
N11025 X-2.396 Y-0.8208
N11030 X-2.3895 Y-0.8164
N11035 X-2.3831 Y-0.8113
N11040 X-2.3768 Y-0.8054
N11045 X-2.3707 Y-0.7987
N11050 X-2.3654 Y-0.7918
N11055 X-2.3604 Y-0.7841
N11060 X-2.356 Y-0.7759
N11065 X-2.3525 Y-0.7679
N11070 X-2.3494 Y-0.759
N11075 X-2.347 Y-0.75
N11080 X-2.3455 Y-0.7415
N11085 X-2.3446 Y-0.7319
N11090 X-2.3445 Y-0.7228
N11095 X-2.3451 Y-0.714
N11100 X-2.3481 Y-0.7024
N11105 X-2.3535 Y-0.6917
N11110 X-2.3609 Y-0.6823
N11115 X-2.3702 Y-0.6747
N11120 X-2.3809 Y-0.6692
N11125 X-2.3925 Y-0.6661
N11130 X-2.4044 Y-0.6654
N11135 X-2.4622 Y-0.6683
N11140 G3 X-2.4845 Y-0.6985 I0.0021 J-0.0249
N11145 G1 X-2.4594 Y-0.8134
N11150 G3 X-2.4371 Y-0.833 I0.0244 J0.0053
N11155 G1 X-2.3821 Y-0.8357
N11160 X-2.3767
N11165 X-2.3713 Y-0.8351
N11170 X-2.3655 Y-0.834
N11175 X-2.3594 Y-0.8322
N11180 X-2.3531 Y-0.8299
N11185 X-2.3466 Y-0.8269
N11190 X-2.3399 Y-0.823
N11195 X-2.3332 Y-0.8185
N11200 X-2.3267 Y-0.8132
N11205 X-2.3201 Y-0.8071
N11210 X-2.3138 Y-0.8001
N11215 X-2.3079 Y-0.7923
N11220 X-2.3027 Y-0.7842
N11225 X-2.2983 Y-0.776
N11230 X-2.2943 Y-0.7668
N11235 X-2.2913 Y-0.7581
N11240 X-2.2889 Y-0.7487
N11245 X-2.2873 Y-0.7393
N11250 X-2.2865 Y-0.7303
N11255 X-2.2864 Y-0.7204
N11260 X-2.2866 Y-0.7167
N11265 X-2.289 Y-0.704
N11270 X-2.294 Y-0.6922
N11275 X-2.3015 Y-0.6817
N11280 X-2.3112 Y-0.6732
N11285 X-2.3225 Y-0.6669
N11290 X-2.3349 Y-0.6634
N11295 X-2.3477 Y-0.6626
N11300 X-2.4044 Y-0.6654
N11305 G3 X-2.4269 Y-0.6949 I0.0021 J-0.0249
N11310 G1 X-2.4045 Y-0.8154
N11315 G3 X-2.3821 Y-0.8357 I0.0246 J0.0046
N11320 G1 X-2.3278 Y-0.8384
N11325 X-2.3224
N11330 X-2.317 Y-0.838
N11335 X-2.3112 Y-0.837
N11340 X-2.3051 Y-0.8355
N11345 X-2.2986 Y-0.8333
N11350 X-2.2919 Y-0.8304
N11355 X-2.2852 Y-0.8268
N11360 X-2.2782 Y-0.8224
N11365 X-2.2713 Y-0.8172
N11370 X-2.2645 Y-0.8111
N11375 X-2.2581 Y-0.8044
N11380 X-2.2518 Y-0.7966
N11385 X-2.2463 Y-0.7886
N11390 X-2.2413 Y-0.7799
N11395 X-2.2369 Y-0.7707
N11400 X-2.2336 Y-0.7619
N11405 X-2.2307 Y-0.752
N11410 X-2.2288 Y-0.7425
N11415 X-2.2277 Y-0.7332
N11420 X-2.2273 Y-0.723
N11425 X-2.228 Y-0.7108
N11430 X-2.2308 Y-0.6987
N11435 X-2.2362 Y-0.6874
N11440 X-2.2438 Y-0.6775
N11445 X-2.2533 Y-0.6695
N11450 X-2.2643 Y-0.6637
N11455 X-2.2764 Y-0.6603
N11460 X-2.2888 Y-0.6596
N11465 X-2.3477 Y-0.6626
N11470 G3 X-2.3703 Y-0.6914 I0.0021 J-0.0249
N11475 G1 X-2.3504 Y-0.8174
N11480 G3 X-2.3278 Y-0.8384 I0.0247 J0.0039
N11485 G1 X-2.269 Y-0.8414
N11490 X-2.2636
N11495 X-2.258 Y-0.8408
N11500 X-2.252 Y-0.8396
N11505 X-2.2455 Y-0.8378
N11510 X-2.2389 Y-0.8354
N11515 X-2.232 Y-0.8323
N11520 X-2.2248 Y-0.8283
N11525 X-2.2178 Y-0.8236
N11530 X-2.2108 Y-0.818
N11535 X-2.2038 Y-0.8115
N11540 X-2.1971 Y-0.8042
N11545 X-2.1908 Y-0.7961
N11550 X-2.185 Y-0.7873
N11555 X-2.1802 Y-0.7784
N11560 X-2.1758 Y-0.7685
N11565 X-2.1725 Y-0.759
N11570 X-2.1699 Y-0.7492
N11575 X-2.168 Y-0.7389
N11580 X-2.1671 Y-0.7294
N11585 X-2.1669 Y-0.719
N11590 X-2.1679 Y-0.7065
N11595 X-2.171 Y-0.6946
N11600 X-2.1764 Y-0.6836
N11605 X-2.1841 Y-0.674
N11610 X-2.1935 Y-0.6662
N11615 X-2.2045 Y-0.6605
N11620 X-2.2163 Y-0.6573
N11625 X-2.2286 Y-0.6566
N11630 X-2.2888 Y-0.6596
N11635 G3 X-2.3114 Y-0.6882 I0.0021 J-0.0249
N11640 G1 X-2.2916 Y-0.8202
N11645 G3 X-2.269 Y-0.8414 I0.0247 J0.0037
N11650 G1 X-2.2102 Y-0.8443
N11655 X-2.2048
N11660 X-2.199 Y-0.8437
N11665 X-2.1927 Y-0.8424
N11670 X-2.1862 Y-0.8406
N11675 X-2.1793 Y-0.8381
N11680 X-2.1721 Y-0.8347
N11685 X-2.165 Y-0.8307
N11690 X-2.1577 Y-0.8258
N11695 X-2.1503 Y-0.8199
N11700 X-2.1432 Y-0.8132
N11705 X-2.1364 Y-0.8057
N11710 X-2.1299 Y-0.7973
N11715 X-2.1239 Y-0.7879
N11720 X-2.1188 Y-0.7785
N11725 X-2.1144 Y-0.7684
N11730 X-2.1108 Y-0.7581
N11735 X-2.1082 Y-0.7483
N11740 X-2.1064 Y-0.7375
N11745 X-2.1054 Y-0.7276
N11750 X-2.1053 Y-0.7171
N11755 X-2.106 Y-0.7069
N11760 X-2.1065 Y-0.7032
N11765 X-2.1096 Y-0.6913
N11770 X-2.1151 Y-0.6804
N11775 X-2.1227 Y-0.6708
N11780 X-2.1322 Y-0.663
N11785 X-2.1431 Y-0.6574
N11790 X-2.1549 Y-0.6542
N11795 X-2.1672 Y-0.6535
N11800 X-2.2286 Y-0.6566
N11805 G3 X-2.2512 Y-0.6848 I0.0021 J-0.0249
N11810 G1 X-2.2328 Y-0.8227
N11815 G3 X-2.2102 Y-0.8443 I0.0248 J0.0033
N11820 G1 X-2.1514 Y-0.8473
N11825 X-2.146
N11830 X-2.14 Y-0.8467
N11835 X-2.1337 Y-0.8455
N11840 X-2.1271 Y-0.8437
N11845 X-2.12 Y-0.8412
N11850 X-2.1128 Y-0.838
N11855 X-2.1053 Y-0.8339
N11860 X-2.0978 Y-0.8289
N11865 X-2.0903 Y-0.8231
N11870 X-2.083 Y-0.8164
N11875 X-2.0759 Y-0.8088
N11880 X-2.0691 Y-0.8001
N11885 X-2.0628 Y-0.7907
N11890 X-2.0572 Y-0.7807
N11895 X-2.0527 Y-0.7706
N11900 X-2.0487 Y-0.7596
N11905 X-2.0459 Y-0.7494
N11910 X-2.0438 Y-0.7383
N11915 X-2.0427 Y-0.7278
N11920 X-2.0425 Y-0.7175
N11925 X-2.0431 Y-0.7066
N11930 X-2.0445 Y-0.6962
N11935 X-2.0482 Y-0.6851
N11940 X-2.054 Y-0.6749
N11945 X-2.0616 Y-0.6661
N11950 X-2.0709 Y-0.659
N11955 X-2.0814 Y-0.6539
N11960 X-2.0928 Y-0.651
N11965 X-2.1044 Y-0.6504
N11970 X-2.1672 Y-0.6535
N11975 G3 X-2.1899 Y-0.6812 I0.0021 J-0.0249
N11980 G1 X-2.1741 Y-0.8251
N11985 G3 X-2.1514 Y-0.8473 I0.0249 J0.0027
N11990 G1 X-2.0925 Y-0.8502
N11995 X-2.0864
N12000 X-2.0804 Y-0.8497
N12005 X-2.0742 Y-0.8487
N12010 X-2.0674 Y-0.847
N12015 X-2.0602 Y-0.8447
N12020 X-2.053 Y-0.8416
N12025 X-2.0453 Y-0.8375
N12030 X-2.0375 Y-0.8327
N12035 X-2.03 Y-0.827
N12040 X-2.0223 Y-0.8202
N12045 X-2.0149 Y-0.8125
N12050 X-2.0078 Y-0.8039
N12055 X-2.0013 Y-0.7945
N12060 X-1.9953 Y-0.7842
N12065 X-1.99 Y-0.7731
N12070 X-1.9859 Y-0.7625
N12075 X-1.9826 Y-0.751
N12080 X-1.9803 Y-0.7403
N12085 X-1.9789 Y-0.729
N12090 X-1.9784 Y-0.7182
N12095 X-1.9788 Y-0.7076
N12100 X-1.9806 Y-0.6941
N12105 X-1.9841 Y-0.6828
N12110 X-1.9898 Y-0.6724
N12115 X-1.9975 Y-0.6633
N12120 X-2.0068 Y-0.6561
N12125 X-2.0175 Y-0.6508
N12130 X-2.0289 Y-0.6478
N12135 X-2.0408 Y-0.6472
N12140 X-2.1044 Y-0.6504
N12145 G3 X-2.1272 Y-0.6773 I0.0021 J-0.0249
N12150 G1 X-2.1153 Y-0.8273
N12155 G3 X-2.0925 Y-0.8502 I0.0249 J0.002
N12160 G1 X-2.0291 Y-0.8534
N12165 X-2.0237
N12170 X-2.0176 Y-0.8528
N12175 X-2.011 Y-0.8517
N12180 X-2.0042 Y-0.8499
N12185 X-1.9967 Y-0.8473
N12190 X-1.9891 Y-0.844
N12195 X-1.9814 Y-0.8398
N12200 X-1.9733 Y-0.8345
N12205 X-1.9654 Y-0.8285
N12210 X-1.9577 Y-0.8215
N12215 X-1.95 Y-0.8134
N12220 X-1.9428 Y-0.8043
N12225 X-1.9361 Y-0.7944
N12230 X-1.93 Y-0.7837
N12235 X-1.9247 Y-0.7722
N12240 X-1.9206 Y-0.761
N12245 X-1.9172 Y-0.749
N12250 X-1.9151 Y-0.738
N12255 X-1.9137 Y-0.7262
N12260 X-1.9134 Y-0.7153
N12265 X-1.9139 Y-0.7041
N12270 X-1.9153 Y-0.6934
N12275 X-1.916 Y-0.6901
N12280 X-1.9196 Y-0.679
N12285 X-1.9253 Y-0.6687
N12290 X-1.933 Y-0.6598
N12295 X-1.9423 Y-0.6527
N12300 X-1.9529 Y-0.6475
N12305 X-1.9642 Y-0.6446
N12310 X-1.976 Y-0.644
N12315 X-2.0408 Y-0.6472
N12320 G3 X-2.0636 Y-0.674 I0.0021 J-0.0249
N12325 G1 X-2.0519 Y-0.8303
N12330 G3 X-2.0291 Y-0.8534 I0.0249 J0.0019
N12335 G1 X-1.9665 Y-0.8565
N12340 X-1.9611
N12345 X-1.9548 Y-0.856
N12350 X-1.9483 Y-0.8549
N12355 X-1.9411 Y-0.8531
N12360 X-1.9337 Y-0.8505
N12365 X-1.926 Y-0.8472
N12370 X-1.9179 Y-0.8429
N12375 X-1.9098 Y-0.8378
N12380 X-1.9017 Y-0.8316
N12385 X-1.8936 Y-0.8243
N12390 X-1.8857 Y-0.8161
N12395 X-1.8783 Y-0.807
N12400 X-1.8714 Y-0.7969
N12405 X-1.8651 Y-0.7858
N12410 X-1.8594 Y-0.7739
N12415 X-1.855 Y-0.7621
N12420 X-1.8514 Y-0.7497
N12425 X-1.8491 Y-0.738
N12430 X-1.8476 Y-0.7261
N12435 X-1.8472 Y-0.7145
N12440 X-1.8477 Y-0.7035
N12445 X-1.8491 Y-0.6921
N12450 X-1.8501 Y-0.6872
N12455 X-1.8536 Y-0.676
N12460 X-1.8593 Y-0.6656
N12465 X-1.867 Y-0.6567
N12470 X-1.8763 Y-0.6495
N12475 X-1.8869 Y-0.6443
N12480 X-1.8983 Y-0.6413
N12485 X-1.9101 Y-0.6407
N12490 X-1.976 Y-0.644
N12495 G3 X-1.9988 Y-0.6703 I0.0021 J-0.0249
N12500 G1 X-1.9893 Y-0.833
N12505 G3 X-1.9665 Y-0.8565 I0.025 J0.0015
N12510 G1 X-1.903 Y-0.8597
N12515 X-1.8973
N12520 X-1.891 Y-0.8592
N12525 X-1.8845 Y-0.8581
N12530 X-1.8772 Y-0.8563
N12535 X-1.8697 Y-0.8538
N12540 X-1.8618 Y-0.8504
N12545 X-1.8535 Y-0.8461
N12550 X-1.8453 Y-0.8409
N12555 X-1.8368 Y-0.8346
N12560 X-1.8285 Y-0.8272
N12565 X-1.8204 Y-0.8189
N12570 X-1.8128 Y-0.8096
N12575 X-1.8056 Y-0.7992
N12580 X-1.799 Y-0.7878
N12585 X-1.7931 Y-0.7756
N12590 X-1.7884 Y-0.7632
N12595 X-1.7847 Y-0.7505
N12600 X-1.7821 Y-0.738
N12605 X-1.7806 Y-0.726
N12610 X-1.78 Y-0.7138
N12615 X-1.7804 Y-0.7025
N12620 X-1.7818 Y-0.6907
N12625 X-1.7841 Y-0.6796
N12630 X-1.789 Y-0.6676
N12635 X-1.7965 Y-0.6569
N12640 X-1.8062 Y-0.6482
N12645 X-1.8176 Y-0.6418
N12650 X-1.8301 Y-0.6381
N12655 X-1.8431 Y-0.6373
N12660 X-1.9101 Y-0.6407
N12665 G3 X-1.933 Y-0.6666 I0.0021 J-0.0249
N12670 G1 X-1.9259 Y-0.8358
N12675 G3 X-1.903 Y-0.8597 I0.025 J0.0011
N12680 G1 X-1.8404 Y-0.8628
N12685 X-1.8321
N12690 X-1.8257 Y-0.8623
N12695 X-1.8191 Y-0.8612
N12700 X-1.8116 Y-0.8594
N12705 X-1.804 Y-0.8568
N12710 X-1.7959 Y-0.8534
N12715 X-1.7875 Y-0.849
N12720 X-1.7791 Y-0.8437
N12725 X-1.7704 Y-0.8372
N12730 X-1.7618 Y-0.8296
N12735 X-1.7536 Y-0.8211
N12740 X-1.7458 Y-0.8115
N12745 X-1.7383 Y-0.8008
N12750 X-1.7315 Y-0.7891
N12755 X-1.7255 Y-0.7765
N12760 X-1.7204 Y-0.7632
N12765 X-1.7166 Y-0.7502
N12770 X-1.7139 Y-0.7373
N12775 X-1.7123 Y-0.7244
N12780 X-1.7118 Y-0.7126
N12785 X-1.7122 Y-0.7001
N12790 X-1.7135 Y-0.6889
N12795 X-1.7162 Y-0.6762
N12800 X-1.7211 Y-0.6642
N12805 X-1.7286 Y-0.6535
N12810 X-1.7383 Y-0.6448
N12815 X-1.7497 Y-0.6384
N12820 X-1.7622 Y-0.6347
N12825 X-1.7752 Y-0.6339
N12830 X-1.8431 Y-0.6373
N12835 G3 X-1.866 Y-0.6626 I0.0021 J-0.0249
N12840 G1 X-1.8633 Y-0.8383
N12845 G3 X-1.8404 Y-0.8628 I0.025 J0.0004
N12850 G1 X-1.7731 Y-0.8662
N12855 X-1.7661
N12860 X-1.7596 Y-0.8656
N12865 X-1.7528 Y-0.8645
N12870 X-1.7452 Y-0.8627
N12875 X-1.7375 Y-0.8601
N12880 X-1.7291 Y-0.8566
N12885 X-1.7206 Y-0.8521
N12890 X-1.712 Y-0.8466
N12895 X-1.703 Y-0.8399
N12900 X-1.6943 Y-0.8322
N12905 X-1.6858 Y-0.8235
N12910 X-1.6776 Y-0.8135
N12915 X-1.67 Y-0.8024
N12920 X-1.663 Y-0.7904
N12925 X-1.6568 Y-0.7775
N12930 X-1.6516 Y-0.7639
N12935 X-1.6475 Y-0.75
N12940 X-1.6448 Y-0.7369
N12945 X-1.6431 Y-0.7232
N12950 X-1.6425 Y-0.7111
N12955 X-1.643 Y-0.6983
N12960 X-1.6444 Y-0.6867
N12965 X-1.6473 Y-0.6728
N12970 X-1.6523 Y-0.6607
N12975 X-1.6598 Y-0.6501
N12980 X-1.6695 Y-0.6413
N12985 X-1.6808 Y-0.635
N12990 X-1.6934 Y-0.6313
N12995 X-1.7064 Y-0.6305
N13000 X-1.7752 Y-0.6339
N13005 G3 X-1.7981 Y-0.6591 I0.0021 J-0.0249
N13010 G1 X-1.796 Y-0.8415
N13015 G3 X-1.7731 Y-0.8662 I0.025 J0.0003
N13020 G1 X-1.7059 Y-0.8695
N13025 X-1.6989
N13030 X-1.6924 Y-0.869
N13035 X-1.6854 Y-0.8679
N13040 X-1.6777 Y-0.866
N13045 X-1.6699 Y-0.8634
N13050 X-1.6613 Y-0.8597
N13055 X-1.6527 Y-0.8552
N13060 X-1.6438 Y-0.8496
N13065 X-1.6346 Y-0.8427
N13070 X-1.6258 Y-0.8349
N13075 X-1.6171 Y-0.8259
N13080 X-1.6086 Y-0.8155
N13085 X-1.6007 Y-0.8041
N13090 X-1.5935 Y-0.7918
N13095 X-1.5872 Y-0.7786
N13100 X-1.5819 Y-0.7646
N13105 X-1.5776 Y-0.7499
N13110 X-1.5747 Y-0.7364
N13115 X-1.573 Y-0.7221
N13120 X-1.5724 Y-0.7096
N13125 X-1.5729 Y-0.6964
N13130 X-1.5743 Y-0.6844
N13135 X-1.5766 Y-0.6729
N13140 X-1.5776 Y-0.6693
N13145 X-1.5825 Y-0.6573
N13150 X-1.59 Y-0.6466
N13155 X-1.5997 Y-0.6379
N13160 X-1.6111 Y-0.6315
N13165 X-1.6236 Y-0.6278
N13170 X-1.6366 Y-0.627
N13175 X-1.7064 Y-0.6305
N13180 G3 X-1.7292 Y-0.6555 I0.0021 J-0.0249
N13185 G1 X-1.7288 Y-0.8447
N13190 G3 X-1.7059 Y-0.8695 I0.025 J0.0001
N13195 G1 X-1.6387 Y-0.8729
N13200 X-1.6308
N13205 X-1.6243 Y-0.8724
N13210 X-1.6171 Y-0.8712
N13215 X-1.6094 Y-0.8693
N13220 X-1.6013 Y-0.8666
N13225 X-1.5926 Y-0.8629
N13230 X-1.5839 Y-0.8584
N13235 X-1.5747 Y-0.8526
N13240 X-1.5655 Y-0.8456
N13245 X-1.5564 Y-0.8376
N13250 X-1.5474 Y-0.8283
N13255 X-1.5386 Y-0.8176
N13260 X-1.5306 Y-0.806
N13265 X-1.5233 Y-0.7934
N13270 X-1.5167 Y-0.7798
N13275 X-1.5112 Y-0.7652
N13280 X-1.5067 Y-0.7501
N13285 X-1.5038 Y-0.7359
N13290 X-1.5019 Y-0.721
N13295 X-1.5013 Y-0.7079
N13300 X-1.5018 Y-0.6946
N13305 X-1.5033 Y-0.6822
N13310 X-1.5056 Y-0.6705
N13315 X-1.507 Y-0.6658
N13320 X-1.5119 Y-0.6537
N13325 X-1.5194 Y-0.6431
N13330 X-1.5291 Y-0.6343
N13335 X-1.5405 Y-0.628
N13340 X-1.553 Y-0.6243
N13345 X-1.566 Y-0.6235
N13350 X-1.6366 Y-0.627
N13355 G3 X-1.6595 Y-0.6517 I0.0021 J-0.0249
N13360 G1 X-1.6616 Y-0.8477
N13365 G3 X-1.6387 Y-0.8729 I0.025 J-0.0003
N13370 G1 X-1.5714 Y-0.8762
N13375 X-1.5618
N13380 X-1.5552 Y-0.8757
N13385 X-1.5478 Y-0.8745
N13390 X-1.5401 Y-0.8726
N13395 X-1.5319 Y-0.8699
N13400 X-1.5231 Y-0.8661
N13405 X-1.5142 Y-0.8615
N13410 X-1.5048 Y-0.8555
N13415 X-1.4955 Y-0.8486
N13420 X-1.4861 Y-0.8403
N13425 X-1.4768 Y-0.8307
N13430 X-1.4679 Y-0.8198
N13435 X-1.4597 Y-0.8079
N13440 X-1.4521 Y-0.7949
N13445 X-1.4454 Y-0.7808
N13450 X-1.4396 Y-0.7658
N13455 X-1.435 Y-0.7502
N13460 X-1.4319 Y-0.7353
N13465 X-1.43 Y-0.72
N13470 X-1.4294 Y-0.7063
N13475 X-1.4299 Y-0.6927
N13480 X-1.4314 Y-0.6798
N13485 X-1.4338 Y-0.6681
N13490 X-1.4354 Y-0.6622
N13495 X-1.4404 Y-0.6501
N13500 X-1.4479 Y-0.6395
N13505 X-1.4576 Y-0.6308
N13510 X-1.4689 Y-0.6244
N13515 X-1.4814 Y-0.6207
N13520 X-1.4944 Y-0.6199
N13525 X-1.566 Y-0.6235
N13530 G3 X-1.5888 Y-0.6477 I0.0021 J-0.0249
N13535 G1 X-1.5943 Y-0.8507
N13540 G3 X-1.5714 Y-0.8762 I0.025 J-0.0007
N13545 G1 X-1.4996 Y-0.8798
N13550 X-1.4921
N13555 X-1.4855 Y-0.8793
N13560 X-1.4779 Y-0.8781
N13565 X-1.4701 Y-0.8762
N13570 X-1.4616 Y-0.8733
N13575 X-1.4528 Y-0.8696
N13580 X-1.4437 Y-0.8648
N13585 X-1.434 Y-0.8587
N13590 X-1.4246 Y-0.8517
N13595 X-1.415 Y-0.8432
N13600 X-1.4054 Y-0.8332
N13605 X-1.3964 Y-0.8223
N13610 X-1.3879 Y-0.81
N13615 X-1.3801 Y-0.7965
N13620 X-1.3731 Y-0.7819
N13625 X-1.3672 Y-0.7665
N13630 X-1.3625 Y-0.7504
N13635 X-1.3592 Y-0.7347
N13640 X-1.3572 Y-0.7191
N13645 X-1.3566 Y-0.7046
N13650 X-1.3571 Y-0.6909
N13655 X-1.3587 Y-0.6775
N13660 X-1.361 Y-0.6656
N13665 X-1.363 Y-0.6586
N13670 X-1.368 Y-0.6465
N13675 X-1.3755 Y-0.6359
N13680 X-1.3852 Y-0.6271
N13685 X-1.3965 Y-0.6208
N13690 X-1.409 Y-0.6171
N13695 X-1.422 Y-0.6163
N13700 X-1.4944 Y-0.6199
N13705 G3 X-1.5173 Y-0.6442 I0.0021 J-0.0249
N13710 G1 X-1.5225 Y-0.8543
N13715 G3 X-1.4996 Y-0.8798 I0.025 J-0.0006
N13720 G1 X-1.4286 Y-0.8834
N13725 X-1.4214
N13730 X-1.4147 Y-0.8829
N13735 X-1.407 Y-0.8816
N13740 X-1.3992 Y-0.8797
N13745 X-1.3905 Y-0.8768
N13750 X-1.3816 Y-0.873
N13755 X-1.3723 Y-0.8681
N13760 X-1.3625 Y-0.8619
N13765 X-1.3529 Y-0.8548
N13770 X-1.343 Y-0.846
N13775 X-1.3332 Y-0.8359
N13780 X-1.324 Y-0.8247
N13785 X-1.3152 Y-0.812
N13790 X-1.3071 Y-0.7981
N13795 X-1.2999 Y-0.783
N13800 X-1.2939 Y-0.7672
N13805 X-1.289 Y-0.7507
N13810 X-1.2856 Y-0.7342
N13815 X-1.2836 Y-0.7182
N13820 X-1.2829 Y-0.7029
N13825 X-1.2834 Y-0.6891
N13830 X-1.2851 Y-0.6751
N13835 X-1.2875 Y-0.663
N13840 X-1.2898 Y-0.6549
N13845 X-1.2947 Y-0.6429
N13850 X-1.3022 Y-0.6322
N13855 X-1.3119 Y-0.6235
N13860 X-1.3233 Y-0.6171
N13865 X-1.3358 Y-0.6134
N13870 X-1.3488 Y-0.6126
N13875 X-1.422 Y-0.6163
N13880 G3 X-1.4449 Y-0.6404 I0.0021 J-0.0249
N13885 G1 X-1.4514 Y-0.8577
N13890 G3 X-1.4286 Y-0.8834 I0.025 J-0.0007
N13895 G1 X-1.3567 Y-0.887
N13900 X-1.3499
N13905 X-1.3431 Y-0.8864
N13910 X-1.3354 Y-0.8852
N13915 X-1.3274 Y-0.8832
N13920 X-1.3185 Y-0.8803
N13925 X-1.3096 Y-0.8765
N13930 X-1.3 Y-0.8714
N13935 X-1.2901 Y-0.8652
N13940 X-1.2803 Y-0.8579
N13945 X-1.2701 Y-0.8488
N13950 X-1.2603 Y-0.8387
N13955 X-1.2508 Y-0.8271
N13960 X-1.2417 Y-0.8141
N13965 X-1.2333 Y-0.7996
N13970 X-1.226 Y-0.7842
N13975 X-1.2198 Y-0.768
N13980 X-1.2148 Y-0.751
N13985 X-1.2112 Y-0.7338
N13990 X-1.2092 Y-0.7174
N13995 X-1.2084 Y-0.7013
N14000 X-1.209 Y-0.6871
N14005 X-1.2106 Y-0.6727
N14010 X-1.2131 Y-0.6603
N14015 X-1.217 Y-0.6468
N14020 X-1.2225 Y-0.6358
N14025 X-1.2302 Y-0.6262
N14030 X-1.2396 Y-0.6184
N14035 X-1.2505 Y-0.6128
N14040 X-1.2624 Y-0.6096
N14045 X-1.2746 Y-0.6089
N14050 X-1.3488 Y-0.6126
N14055 G3 X-1.3717 Y-0.6367 I0.0021 J-0.0249
N14060 G1 X-1.3796 Y-0.8612
N14065 G3 X-1.3567 Y-0.887 I0.025 J-0.0009
N14070 G1 X-1.2857 Y-0.8905
N14075 X-1.2776
N14080 X-1.2707 Y-0.89
N14085 X-1.2629 Y-0.8887
N14090 X-1.2548 Y-0.8867
N14095 X-1.2458 Y-0.8837
N14100 X-1.2367 Y-0.8799
N14105 X-1.2268 Y-0.8747
N14110 X-1.217 Y-0.8685
N14115 X-1.2068 Y-0.8609
N14120 X-1.1964 Y-0.8517
N14125 X-1.1865 Y-0.8414
N14130 X-1.1768 Y-0.8296
N14135 X-1.1674 Y-0.8161
N14140 X-1.1588 Y-0.8013
N14145 X-1.1513 Y-0.7855
N14150 X-1.1449 Y-0.7689
N14155 X-1.1398 Y-0.7514
N14160 X-1.1361 Y-0.7335
N14165 X-1.1339 Y-0.7158
N14170 X-1.1331 Y-0.6996
N14175 X-1.1337 Y-0.6846
N14180 X-1.1353 Y-0.6704
N14185 X-1.138 Y-0.6571
N14190 X-1.1422 Y-0.643
N14195 X-1.1476 Y-0.632
N14200 X-1.1553 Y-0.6225
N14205 X-1.1648 Y-0.6147
N14210 X-1.1756 Y-0.6091
N14215 X-1.1875 Y-0.6058
N14220 X-1.1997 Y-0.6052
N14225 X-1.2746 Y-0.6089
N14230 G3 X-1.2974 Y-0.6326 I0.0021 J-0.0249
N14235 G1 X-1.3085 Y-0.8644
N14240 G3 X-1.2857 Y-0.8905 I0.025 J-0.0012
N14245 G1 X-1.21 Y-0.8943
N14250 X-1.2046
N14255 X-1.1976 Y-0.8937
N14260 X-1.1897 Y-0.8925
N14265 X-1.1814 Y-0.8904
N14270 X-1.1723 Y-0.8874
N14275 X-1.1631 Y-0.8835
N14280 X-1.153 Y-0.8782
N14285 X-1.143 Y-0.8719
N14290 X-1.1326 Y-0.8641
N14295 X-1.1221 Y-0.8548
N14300 X-1.112 Y-0.8443
N14305 X-1.1019 Y-0.832
N14310 X-1.0923 Y-0.8181
N14315 X-1.0835 Y-0.803
N14320 X-1.0758 Y-0.7868
N14325 X-1.0692 Y-0.7696
N14330 X-1.0639 Y-0.7516
N14335 X-1.0601 Y-0.7331
N14340 X-1.0578 Y-0.7146
N14345 X-1.0571 Y-0.698
N14350 X-1.0576 Y-0.6823
N14355 X-1.0593 Y-0.668
N14360 X-1.0621 Y-0.6543
N14365 X-1.0666 Y-0.6392
N14370 X-1.0721 Y-0.6282
N14375 X-1.0797 Y-0.6187
N14380 X-1.0892 Y-0.6109
N14385 X-1.1001 Y-0.6053
N14390 X-1.1119 Y-0.6021
N14395 X-1.1241 Y-0.6014
N14400 X-1.1997 Y-0.6052
N14405 G3 X-1.2226 Y-0.629 I0.0021 J-0.0249
N14410 G1 X-1.2329 Y-0.8683
N14415 G3 X-1.21 Y-0.8943 I0.025 J-0.0011
N14420 G1 X-1.1382 Y-0.8979
N14425 X-1.1308
N14430 X-1.1235 Y-0.8973
N14435 X-1.1157 Y-0.8961
N14440 X-1.1072 Y-0.894
N14445 X-1.0981 Y-0.8909
N14450 X-1.0886 Y-0.8869
N14455 X-1.0784 Y-0.8816
N14460 X-1.0684 Y-0.8752
N14465 X-1.0577 Y-0.8672
N14470 X-1.0471 Y-0.8579
N14475 X-1.0367 Y-0.8472
N14480 X-1.0264 Y-0.8345
N14485 X-1.0165 Y-0.8204
N14490 X-1.0076 Y-0.805
N14495 X-0.9997 Y-0.7883
N14500 X-0.9928 Y-0.7705
N14505 X-0.9874 Y-0.752
N14510 X-0.9834 Y-0.7329
N14515 X-0.981 Y-0.7137
N14520 X-0.9803 Y-0.6967
N14525 X-0.9809 Y-0.6802
N14530 X-0.9826 Y-0.6657
N14535 X-0.9854 Y-0.6515
N14540 X-0.989 Y-0.639
N14545 X-0.9903 Y-0.6354
N14550 X-0.9958 Y-0.6245
N14555 X-1.0034 Y-0.6149
N14560 X-1.0129 Y-0.6071
N14565 X-1.0238 Y-0.6015
N14570 X-1.0356 Y-0.5983
N14575 X-1.0479 Y-0.5976
N14580 X-1.1241 Y-0.6014
N14585 G3 X-1.147 Y-0.6249 I0.0021 J-0.0249
N14590 G1 X-1.161 Y-0.8716
N14595 G3 X-1.1382 Y-0.8979 I0.025 J-0.0014
N14600 G1 X-1.0625 Y-0.9017
N14605 X-1.0563
N14610 X-1.0488 Y-0.9011
N14615 X-1.041 Y-0.8998
N14620 X-1.0323 Y-0.8977
N14625 X-1.0232 Y-0.8946
N14630 X-1.0135 Y-0.8905
N14635 X-1.0032 Y-0.8852
N14640 X-0.993 Y-0.8787
N14645 X-0.982 Y-0.8705
N14650 X-0.9714 Y-0.8611
N14655 X-0.9607 Y-0.8501
N14660 X-0.9501 Y-0.8371
N14665 X-0.9402 Y-0.8228
N14670 X-0.931 Y-0.807
N14675 X-0.9228 Y-0.7898
N14680 X-0.9157 Y-0.7714
N14685 X-0.9101 Y-0.7523
N14690 X-0.9061 Y-0.7327
N14695 X-0.9036 Y-0.7129
N14700 X-0.9028 Y-0.6953
N14705 X-0.9034 Y-0.6781
N14710 X-0.9052 Y-0.6633
N14715 X-0.9081 Y-0.6487
N14720 X-0.9117 Y-0.636
N14725 X-0.9133 Y-0.6316
N14730 X-0.9188 Y-0.6206
N14735 X-0.9265 Y-0.611
N14740 X-0.9359 Y-0.6032
N14745 X-0.9468 Y-0.5976
N14750 X-0.9587 Y-0.5944
N14755 X-0.9709 Y-0.5937
N14760 X-1.0479 Y-0.5976
N14765 G3 X-1.0707 Y-0.621 I0.0021 J-0.0249
N14770 G1 X-1.0854 Y-0.8753
N14775 G3 X-1.0625 Y-0.9017 I0.025 J-0.0014
N14780 G1 X-0.9869 Y-0.9055
N14785 X-0.981
N14790 X-0.9734 Y-0.9049
N14795 X-0.9655 Y-0.9036
N14800 X-0.9567 Y-0.9014
N14805 X-0.9476 Y-0.8984
N14810 X-0.9377 Y-0.8942
N14815 X-0.9274 Y-0.8888
N14820 X-0.9169 Y-0.8822
N14825 X-0.9057 Y-0.8738
N14830 X-0.895 Y-0.8643
N14835 X-0.884 Y-0.8529
N14840 X-0.8731 Y-0.8397
N14845 X-0.8631 Y-0.8253
N14850 X-0.8537 Y-0.809
N14855 X-0.8452 Y-0.7913
N14860 X-0.8379 Y-0.7723
N14865 X-0.8322 Y-0.7527
N14870 X-0.828 Y-0.7325
N14875 X-0.8254 Y-0.7122
N14880 X-0.8246 Y-0.6939
N14885 X-0.8253 Y-0.676
N14890 X-0.827 Y-0.6609
N14895 X-0.83 Y-0.6458
N14900 X-0.8337 Y-0.6329
N14905 X-0.8357 Y-0.6277
N14910 X-0.8412 Y-0.6167
N14915 X-0.8488 Y-0.6071
N14920 X-0.8583 Y-0.5994
N14925 X-0.8692 Y-0.5937
N14930 X-0.881 Y-0.5905
N14935 X-0.8932 Y-0.5898
N14940 X-0.9709 Y-0.5937
N14945 G3 X-0.9937 Y-0.6171 I0.0021 J-0.0249
N14950 G1 X-1.0097 Y-0.879
N14955 G3 X-0.9869 Y-0.9055 I0.025 J-0.0015
N14960 G1 X-0.9113 Y-0.9093
N14965 X-0.905
N14970 X-0.8973 Y-0.9086
N14975 X-0.8894 Y-0.9074
N14980 X-0.8804 Y-0.9051
N14985 X-0.8712 Y-0.9021
N14990 X-0.8611 Y-0.8978
N14995 X-0.8508 Y-0.8924
N15000 X-0.84 Y-0.8856
N15005 X-0.8288 Y-0.8772
N15010 X-0.8179 Y-0.8675
N15015 X-0.8066 Y-0.8558
N15020 X-0.7956 Y-0.8425
N15025 X-0.7854 Y-0.8277
N15030 X-0.7757 Y-0.811
N15035 X-0.7669 Y-0.7927
N15040 X-0.7594 Y-0.7732
N15045 X-0.7535 Y-0.753
N15050 X-0.7492 Y-0.7323
N15055 X-0.7466 Y-0.7115
N15060 X-0.7458 Y-0.6924
N15065 X-0.7464 Y-0.6739
N15070 X-0.7483 Y-0.6584
N15075 X-0.7513 Y-0.643
N15080 X-0.7551 Y-0.6299
N15085 X-0.7573 Y-0.6238
N15090 X-0.7628 Y-0.6128
N15095 X-0.7705 Y-0.6032
N15100 X-0.7799 Y-0.5954
N15105 X-0.7908 Y-0.5898
N15110 X-0.8027 Y-0.5866
N15115 X-0.8149 Y-0.5859
N15120 X-0.8932 Y-0.5898
N15125 G3 X-0.9161 Y-0.6131 I0.0021 J-0.0249
N15130 G1 X-0.9341 Y-0.8827
N15135 G3 X-0.9113 Y-0.9093 I0.0249 J-0.0017
N15140 G1 X-0.8356 Y-0.913
N15145 X-0.8283
N15150 X-0.8205 Y-0.9124
N15155 X-0.8126 Y-0.9111
N15160 X-0.8034 Y-0.9089
N15165 X-0.7942 Y-0.9058
N15170 X-0.7839 Y-0.9014
N15175 X-0.7736 Y-0.896
N15180 X-0.7625 Y-0.8891
N15185 X-0.7512 Y-0.8806
N15190 X-0.74 Y-0.8707
N15195 X-0.7284 Y-0.8587
N15200 X-0.7174 Y-0.8453
N15205 X-0.707 Y-0.8302
N15210 X-0.697 Y-0.813
N15215 X-0.688 Y-0.7941
N15220 X-0.6803 Y-0.7742
N15225 X-0.6742 Y-0.7534
N15230 X-0.6698 Y-0.7322
N15235 X-0.6671 Y-0.7108
N15240 X-0.6663 Y-0.6909
N15245 X-0.6669 Y-0.6719
N15250 X-0.6688 Y-0.6559
N15255 X-0.672 Y-0.6401
N15260 X-0.6758 Y-0.6268
N15265 X-0.6784 Y-0.6198
N15270 X-0.6838 Y-0.6089
N15275 X-0.6915 Y-0.5993
N15280 X-0.701 Y-0.5915
N15285 X-0.7118 Y-0.5859
N15290 X-0.7237 Y-0.5827
N15295 X-0.7359 Y-0.582
N15300 X-0.8149 Y-0.5859
N15305 G3 X-0.8377 Y-0.609 I0.0021 J-0.0249
N15310 G1 X-0.8584 Y-0.8863
N15315 G3 X-0.8356 Y-0.913 I0.0249 J-0.0019
N15320 G1 X-0.7562 Y-0.917
N15325 X-0.7508
N15330 X-0.7429 Y-0.9164
N15335 X-0.7349 Y-0.915
N15340 X-0.7256 Y-0.9127
N15345 X-0.7163 Y-0.9096
N15350 X-0.7058 Y-0.9051
N15355 X-0.6953 Y-0.8996
N15360 X-0.684 Y-0.8924
N15365 X-0.6726 Y-0.8838
N15370 X-0.6612 Y-0.8736
N15375 X-0.6493 Y-0.8613
N15380 X-0.6382 Y-0.8477
N15385 X-0.6275 Y-0.8321
N15390 X-0.6173 Y-0.8143
N15395 X-0.6081 Y-0.795
N15400 X-0.6003 Y-0.7745
N15405 X-0.5941 Y-0.7532
N15410 X-0.5897 Y-0.7313
N15415 X-0.587 Y-0.7093
N15420 X-0.5861 Y-0.6886
N15425 X-0.5869 Y-0.6691
N15430 X-0.5888 Y-0.6527
N15435 X-0.5921 Y-0.6367
N15440 X-0.596 Y-0.6231
N15445 X-0.5988 Y-0.6157
N15450 X-0.6043 Y-0.6048
N15455 X-0.6119 Y-0.5952
N15460 X-0.6214 Y-0.5875
N15465 X-0.6323 Y-0.5819
N15470 X-0.6441 Y-0.5787
N15475 X-0.6563 Y-0.578
N15480 X-0.7359 Y-0.582
N15485 G3 X-0.7587 Y-0.6051 I0.0021 J-0.0249
N15490 G1 X-0.779 Y-0.8903
N15495 G3 X-0.7562 Y-0.917 I0.0249 J-0.0018
N15500 G1 X-0.6806 Y-0.9208
N15505 X-0.673
N15510 X-0.6651 Y-0.9202
N15515 X-0.657 Y-0.9188
N15520 X-0.6477 Y-0.9166
N15525 X-0.6382 Y-0.9134
N15530 X-0.6277 Y-0.9089
N15535 X-0.6171 Y-0.9034
N15540 X-0.6056 Y-0.8961
N15545 X-0.5943 Y-0.8877
N15550 X-0.5824 Y-0.8772
N15555 X-0.5705 Y-0.8649
N15560 X-0.5593 Y-0.8511
N15565 X-0.5481 Y-0.8351
N15570 X-0.5376 Y-0.8169
N15575 X-0.5283 Y-0.7975
N15580 X-0.5203 Y-0.7767
N15585 X-0.5139 Y-0.7547
N15590 X-0.5092 Y-0.7322
N15595 X-0.5064 Y-0.7094
N15600 X-0.5054 Y-0.6876
N15605 X-0.5061 Y-0.6677
N15610 X-0.5081 Y-0.6506
N15615 X-0.5114 Y-0.6342
N15620 X-0.5153 Y-0.6203
N15625 X-0.5185 Y-0.6118
N15630 X-0.524 Y-0.6009
N15635 X-0.5316 Y-0.5913
N15640 X-0.5411 Y-0.5835
N15645 X-0.552 Y-0.5779
N15650 X-0.5638 Y-0.5747
N15655 X-0.5761 Y-0.574
N15660 X-0.6563 Y-0.578
N15665 G3 X-0.6791 Y-0.6008 I0.0021 J-0.0249
N15670 G1 X-0.7034 Y-0.8938
N15675 G3 X-0.6806 Y-0.9208 I0.0249 J-0.0021
N15680 G1 X-0.6049 Y-0.9246
N15685 X-0.5943
N15690 X-0.5864 Y-0.9239
N15695 X-0.5782 Y-0.9226
N15700 X-0.5688 Y-0.9203
N15705 X-0.5593 Y-0.9171
N15710 X-0.5486 Y-0.9126
N15715 X-0.5379 Y-0.907
N15720 X-0.5262 Y-0.8996
N15725 X-0.5148 Y-0.8911
N15730 X-0.5027 Y-0.8804
N15735 X-0.4907 Y-0.868
N15740 X-0.4793 Y-0.854
N15745 X-0.4679 Y-0.8376
N15750 X-0.4571 Y-0.8191
N15755 X-0.4477 Y-0.7993
N15760 X-0.4395 Y-0.7779
N15765 X-0.4328 Y-0.7553
N15770 X-0.428 Y-0.7321
N15775 X-0.4251 Y-0.7087
N15780 X-0.4241 Y-0.686
N15785 X-0.4248 Y-0.6655
N15790 X-0.4269 Y-0.6478
N15795 X-0.4302 Y-0.6312
N15800 X-0.4343 Y-0.617
N15805 X-0.4377 Y-0.6078
N15810 X-0.4432 Y-0.5968
N15815 X-0.4508 Y-0.5872
N15820 X-0.4603 Y-0.5795
N15825 X-0.4712 Y-0.5738
N15830 X-0.483 Y-0.5706
N15835 X-0.4953 Y-0.5699
N15840 X-0.5761 Y-0.574
N15845 G3 X-0.5988 Y-0.5965 I0.0021 J-0.0249
N15850 G1 X-0.6277 Y-0.8973
N15855 G3 X-0.6049 Y-0.9246 I0.0249 J-0.0024
N15860 G1 X-0.5209 Y-0.9288
N15865 X-0.5154
N15870 X-0.5075 Y-0.9281
N15875 X-0.4991 Y-0.9268
N15880 X-0.4897 Y-0.9245
N15885 X-0.4799 Y-0.9212
N15890 X-0.4692 Y-0.9167
N15895 X-0.4583 Y-0.911
N15900 X-0.4465 Y-0.9035
N15905 X-0.4349 Y-0.8948
N15910 X-0.4226 Y-0.8839
N15915 X-0.4105 Y-0.8715
N15920 X-0.3987 Y-0.8571
N15925 X-0.387 Y-0.8402
N15930 X-0.3762 Y-0.8215
N15935 X-0.3666 Y-0.8014
N15940 X-0.3581 Y-0.7793
N15945 X-0.3512 Y-0.7559
N15950 X-0.3463 Y-0.7321
N15955 X-0.3433 Y-0.7081
N15960 X-0.3422 Y-0.6846
N15965 X-0.343 Y-0.6635
N15970 X-0.3452 Y-0.645
N15975 X-0.3485 Y-0.6282
N15980 X-0.3527 Y-0.6136
N15985 X-0.358 Y-0.5994
N15990 X-0.3639 Y-0.5895
N15995 X-0.3715 Y-0.581
N16000 X-0.3808 Y-0.5741
N16005 X-0.3911 Y-0.5692
N16010 X-0.4023 Y-0.5664
N16015 X-0.4137 Y-0.5659
N16020 X-0.4953 Y-0.5699
N16025 G3 X-0.5181 Y-0.5928 I0.0021 J-0.0249
N16030 G1 X-0.5437 Y-0.9018
N16035 G3 X-0.5209 Y-0.9288 I0.0249 J-0.0021
N16040 G1 X-0.4452 Y-0.9326
N16045 X-0.4354
N16050 X-0.4275 Y-0.9319
N16055 X-0.419 Y-0.9305
N16060 X-0.4097 Y-0.9282
N16065 X-0.3997 Y-0.9249
N16070 X-0.389 Y-0.9204
N16075 X-0.3779 Y-0.9146
N16080 X-0.366 Y-0.9071
N16085 X-0.3543 Y-0.8983
N16090 X-0.3417 Y-0.8872
N16095 X-0.3297 Y-0.8747
N16100 X-0.3176 Y-0.86
N16105 X-0.3056 Y-0.8427
N16110 X-0.2947 Y-0.8239
N16115 X-0.2848 Y-0.8033
N16120 X-0.2761 Y-0.7805
N16125 X-0.2691 Y-0.7565
N16130 X-0.264 Y-0.732
N16135 X-0.2609 Y-0.7074
N16140 X-0.2598 Y-0.6832
N16145 X-0.2607 Y-0.6609
N16150 X-0.2629 Y-0.6416
N16155 X-0.2661 Y-0.6254
N16160 X-0.2706 Y-0.6097
N16165 X-0.2761 Y-0.5953
N16170 X-0.2819 Y-0.5854
N16175 X-0.2896 Y-0.5769
N16180 X-0.2988 Y-0.57
N16185 X-0.3092 Y-0.5651
N16190 X-0.3204 Y-0.5623
N16195 X-0.3318 Y-0.5618
N16200 X-0.4137 Y-0.5659
N16205 G3 X-0.4365 Y-0.5883 I0.0021 J-0.0249
N16210 G1 X-0.468 Y-0.9052
N16215 G3 X-0.4452 Y-0.9326 I0.0249 J-0.0025
N16220 G1 X-0.3612 Y-0.9368
N16225 X-0.3554
N16230 X-0.3475 Y-0.9361
N16235 X-0.3388 Y-0.9347
N16240 X-0.3294 Y-0.9324
N16245 X-0.3193 Y-0.929
N16250 X-0.3086 Y-0.9245
N16255 X-0.2972 Y-0.9186
N16260 X-0.2853 Y-0.911
N16265 X-0.2733 Y-0.9021
N16270 X-0.2605 Y-0.8908
N16275 X-0.2484 Y-0.8782
N16280 X-0.236 Y-0.863
N16285 X-0.2238 Y-0.8454
N16290 X-0.2127 Y-0.8265
N16295 X-0.2026 Y-0.8052
N16300 X-0.1936 Y-0.7819
N16305 X-0.1864 Y-0.7571
N16310 X-0.1811 Y-0.7317
N16315 X-0.178 Y-0.7066
N16320 X-0.1769 Y-0.6818
N16325 X-0.1777 Y-0.6586
N16330 X-0.18 Y-0.6389
N16335 X-0.1833 Y-0.6223
N16340 X-0.1879 Y-0.6063
N16345 X-0.1937 Y-0.5912
N16350 X-0.1995 Y-0.5813
N16355 X-0.2072 Y-0.5728
N16360 X-0.2164 Y-0.5659
N16365 X-0.2268 Y-0.561
N16370 X-0.2379 Y-0.5582
N16375 X-0.2494 Y-0.5577
N16380 X-0.3318 Y-0.5618
N16385 G3 X-0.3546 Y-0.5844 I0.0021 J-0.0249
N16390 G1 X-0.384 Y-0.9096
N16395 G3 X-0.3612 Y-0.9368 I0.0249 J-0.0022
N16400 G1 X-0.2855 Y-0.9405
N16405 X-0.2689
N16410 X-0.2582 Y-0.9395
N16415 X-0.2476 Y-0.9374
N16420 X-0.2372 Y-0.9344
N16425 X-0.2271 Y-0.9305
N16430 X-0.2126 Y-0.9234
N16435 X-0.1989 Y-0.9148
N16440 X-0.1859 Y-0.9051
N16445 X-0.1738 Y-0.8943
N16450 X-0.1626 Y-0.8826
N16455 X-0.1521 Y-0.8703
N16460 X-0.1425 Y-0.8572
N16465 X-0.1337 Y-0.8436
N16470 X-0.1258 Y-0.8295
N16475 X-0.1163 Y-0.8101
N16480 X-0.1083 Y-0.79
N16485 X-0.1016 Y-0.7695
N16490 X-0.0963 Y-0.7486
N16495 X-0.0924 Y-0.7273
N16500 X-0.0898 Y-0.7059
N16505 X-0.0887 Y-0.6843
N16510 X-0.0891 Y-0.6627
N16515 X-0.0904 Y-0.6466
N16520 X-0.0927 Y-0.6305
N16525 X-0.0961 Y-0.6147
N16530 X-0.1007 Y-0.5992
N16535 X-0.1045 Y-0.5888
N16540 X-0.1102 Y-0.5784
N16545 X-0.1179 Y-0.5694
N16550 X-0.1272 Y-0.5621
N16555 X-0.1379 Y-0.5569
N16560 X-0.1493 Y-0.5539
N16565 X-0.1612 Y-0.5532
N16570 X-0.2494 Y-0.5577
N16575 G3 X-0.2721 Y-0.5799 I0.0021 J-0.0249
N16580 G1 X-0.3083 Y-0.9129
N16585 G3 X-0.2855 Y-0.9405 I0.0249 J-0.0027
N16590 G1 X-0.1931 Y-0.9452
N16595 X-0.1823 Y-0.9451
N16600 X-0.1716 Y-0.944
N16605 X-0.161 Y-0.9419
N16610 X-0.1506 Y-0.9388
N16615 X-0.1405 Y-0.9349
N16620 X-0.126 Y-0.9277
N16625 X-0.1123 Y-0.9192
N16630 X-0.1079 Y-0.916
N16635 X-0.0999 Y-0.9114
N16640 X-0.0912 Y-0.9081
N16645 X-0.0822 Y-0.9062
N16650 X-0.073 Y-0.9057
N16655 X-0.0638 Y-0.9068
N16660 X-0.0548 Y-0.9092
N16665 X-0.0464 Y-0.913
N16670 X-0.0387 Y-0.9182
N16675 X-0.0319 Y-0.9244
N16680 X-0.0262 Y-0.9317
N16685 X-0.0082 Y-0.964
N16690 X-0.0007 Y-0.975
N16695 X0.0086 Y-0.9844
N16700 X0.0194 Y-0.992
N16705 G3 X0.0365 Y-0.9454 I0.0116 J0.0221
N16710 G1 X-0.1855 Y-0.8959
N16715 G3 X-0.1931 Y-0.9452 I-0.0054 J-0.0244
N16720 G1 X-0.1175 Y-0.949
N16725 X-0.0918 Y-0.9518
N16730 X-0.067 Y-0.9567
N16735 X-0.0418 Y-0.9626
N16740 X-0.0334 Y-0.9651
N16745 X-0.0244 Y-0.9686
N16750 X-0.0166 Y-0.9723
N16755 X0.018 Y-0.9911
N16760 X0.0254 Y-0.9955
N16765 X0.0356 Y-1.0023
N16770 X0.0459 Y-1.0107
N16775 X0.0554 Y-1.0191
N16780 X0.0843 Y-1.0495
N16785 X0.0937 Y-1.0611
N16790 X0.1011 Y-1.0721
N16795 X0.1087 Y-1.0863
N16800 X0.1105 Y-1.0891
N16805 X0.1127 Y-1.0915
N16810 X0.1151 Y-1.0937
N16815 X0.1182 Y-1.0961 Z0.3707
N16820 X0.1213 Y-1.0984 Z0.3716
N16825 X0.1241 Y-1.1006 Z0.3731
N16830 X0.1268 Y-1.1027 Z0.3752
N16835 X0.1291 Y-1.1045 Z0.3777
N16840 X0.1312 Y-1.106 Z0.3807
N16845 X0.1328 Y-1.1073 Z0.384
N16850 X0.134 Y-1.1082 Z0.3877
N16855 X0.1347 Y-1.1088 Z0.3915
N16860 X0.1349 Y-1.109 Z0.3954
N16865 G0 Z1.205
N16870 G1 X0.1578 Y-0.3838 F500.
N16875 G0 Z0.4204
N16880 G1 Z0.3954 F52.8
N16885 X0.1575 Z0.3915
N16890 X0.1566 Y-0.3835 Z0.3877
N16895 X0.1552 Y-0.3831 Z0.384
N16900 X0.1532 Y-0.3826 Z0.3807
N16905 X0.1507 Y-0.382 Z0.3777
N16910 X0.1478 Y-0.3812 Z0.3752
N16915 X0.1446 Y-0.3803 Z0.3731
N16920 X0.1411 Y-0.3794 Z0.3716
N16925 X0.1374 Y-0.3784 Z0.3707
N16930 X0.1336 Y-0.3774 Z0.3704
N16935 X0.1315 Y-0.3772
N16940 X0.1294 Y-0.3775
N16945 X0.1275 Y-0.3783
N16950 X0.1259 Y-0.3797
N16955 X0.1247 Y-0.3814
N16960 X0.1131 Y-0.4053
N16965 X0.0996 Y-0.4305
N16970 X0.0927 Y-0.4403
N16975 X0.0843 Y-0.4505
N16980 X0.0554 Y-0.4809
N16985 X0.0422 Y-0.4926
N16990 X0.0338 Y-0.499
N16995 X0.0227 Y-0.5062
N17000 X-0.0082 Y-0.5234
N17005 X-0.0166 Y-0.5277
N17010 X-0.025 Y-0.5316
N17015 X-0.0334 Y-0.5349
N17020 X-0.0418 Y-0.5374
N17025 X-0.067 Y-0.5433
N17030 X-0.0922 Y-0.5482
N17035 X-0.1175 Y-0.551
N17040 X-0.1612 Y-0.5532
N17045 X-0.1644 Y-0.5537
N17050 X-0.1675 Y-0.5546
N17055 X-0.1705 Y-0.5559
N17060 X-0.174 Y-0.5577 Z0.3707
N17065 X-0.1774 Y-0.5595 Z0.3716
N17070 X-0.1806 Y-0.5612 Z0.3731
N17075 X-0.1836 Y-0.5627 Z0.3752
N17080 X-0.1862 Y-0.5641 Z0.3777
N17085 X-0.1885 Y-0.5652 Z0.3807
N17090 X-0.1903 Y-0.5662 Z0.384
N17095 X-0.1917 Y-0.5669 Z0.3877
N17100 X-0.1925 Y-0.5673 Z0.3915
N17105 X-0.1927 Y-0.5674 Z0.3954
N17110 G0 Z1.605

(2D Contour2)
N17115 G1 X0.0694 Y-0.3097 F500.
N17120 G0 Z1.605
N17125 Z1.205
N17130 G1 Z1.085 F52.8
N17135 Z0.725
N17140 X0.0691 Z0.7211
N17145 X0.0682 Y-0.3095 Z0.7173
N17150 X0.0667 Y-0.3092 Z0.7137
N17155 X0.0647 Y-0.3088 Z0.7103
N17160 X0.0622 Y-0.3084 Z0.7073
N17165 X0.0593 Y-0.3078 Z0.7048
N17170 X0.056 Y-0.3072 Z0.7027
N17175 X0.0524 Y-0.3065 Z0.7012
N17180 X0.0487 Y-0.3058 Z0.7003
N17185 X0.0449 Y-0.3051 Z0.7
N17190 X0.0203 Y-0.3004
N17195 G3 X-0.0089 Y-0.3204 I-0.0046 J-0.0246
N17200 G2 X-0.2218 Y-0.5034 I-0.2211 J0.0418
N17205 G1 X-2.7734 Y-0.5962
N17210 G2 X-3.0066 Y-0.3713 I-0.0082 J0.2249
N17215 G1 Y-0.225
N17220 G2 X-2.7816 Y0. I0.225 J0.
N17225 G1 X-0.23
N17230 G2 X-0.005 Y-0.225 I0. J-0.225
N17235 G1 Y-0.2786
N17240 G2 X-0.0089 Y-0.3204 I-0.225 J0.
N17245 G3 X0.011 Y-0.3496 I0.0246 J-0.0046
N17250 G1 X0.0356 Y-0.3542
N17255 X0.0394 Y-0.3549 Z0.7003
N17260 X0.0432 Y-0.3556 Z0.7012
N17265 X0.0467 Y-0.3563 Z0.7027
N17270 X0.05 Y-0.3569 Z0.7048
N17275 X0.0529 Y-0.3575 Z0.7073
N17280 X0.0554 Y-0.358 Z0.7103
N17285 X0.0575 Y-0.3583 Z0.7137
N17290 X0.0589 Y-0.3586 Z0.7173
N17295 X0.0598 Y-0.3588 Z0.7211
N17300 X0.0601 Y-0.3589 Z0.725
N17305 G0 Z1.205
N17310 G1 X-0.175 Y-1.575 F500.
N17315 Z1.085 F52.8
N17320 Z0.725
N17325 G19 G3 Y-1.55 Z0.7 J0.025 K0.
N17330 G1 Y-1.525
N17335 G17 G3 X-0.2 Y-1.5 I-0.025 J0.
N17340 G1 X-2.8
N17345 G2 X-3.025 Y-1.275 I0. J0.225
N17350 G1 Y-1.1294
N17355 G2 X-2.7904 Y-0.9046 I0.225 J0.
N17360 G1 X-0.1904 Y-1.016
N17365 G2 X0.025 Y-1.2408 I-0.0096 J-0.2248
N17370 G1 Y-1.275
N17375 G2 X-0.2 Y-1.5 I-0.225 J0.
N17380 G3 X-0.225 Y-1.525 I0. J-0.025
N17385 G1 Y-1.55
N17390 G19 G2 Y-1.575 Z0.725 J0. K0.025
N17395 G0 Z1.605
N17400 M9
N17405 M5
N17410 G53 G0 Z0.

(2D Contour4)
N17415 M1
N17420 T5 M6
N17425 S4500 M3
N17430 G54
N17435 G17 G90
N17440 M8
N17445 G1 X-2.6412 Y-0.9967 F500.
N17450 G0 G43 Z1.605 H5
N17455 T4
N17460 G0 Z1.205
N17465 G1 Z1.085 F10.
N17470 Z0.8625
N17475 Y-0.997 Z0.8586 F22.
N17480 Y-0.998 Z0.8548
N17485 X-2.6413 Y-0.9995 Z0.8512
N17490 X-2.6414 Y-1.0015 Z0.8478
N17495 X-2.6415 Y-1.0041 Z0.8448
N17500 X-2.6416 Y-1.007 Z0.8423
N17505 X-2.6417 Y-1.0104 Z0.8402
N17510 X-2.6418 Y-1.014 Z0.8387
N17515 X-2.642 Y-1.0178 Z0.8378
N17520 X-2.6421 Y-1.0217 Z0.8375
N17525 X-2.643 Y-1.0467
N17530 G3 X-2.619 Y-1.0726 I0.025 J-0.0009
N17535 G2 X-2.631 Y-1.3974 I-0.006 J-0.1624 F25.
N17540 X-2.619 Y-1.0726 I0.006 J0.1624
N17545 G3 X-2.5931 Y-1.0486 I0.0009 J0.025 F22.
N17550 G1 X-2.5922 Y-1.0236
N17555 X-2.592 Y-1.0197 Z0.8378
N17560 X-2.5919 Y-1.0158 Z0.8387
N17565 X-2.5917 Y-1.0122 Z0.8402
N17570 X-2.5916 Y-1.0089 Z0.8423
N17575 X-2.5915 Y-1.0059 Z0.8448
N17580 X-2.5914 Y-1.0034 Z0.8478
N17585 X-2.5913 Y-1.0013 Z0.8512
N17590 Y-0.9998 Z0.8548
N17595 X-2.5912 Y-0.9989 Z0.8586
N17600 Y-0.9986 Z0.8625
N17605 G0 Z1.205
N17610 G1 X-0.3588 Y-0.4883 F500.
N17615 Z1.085 F10.
N17620 Z0.8625
N17625 Y-0.488 Z0.8586 F22.
N17630 Y-0.487 Z0.8548
N17635 X-0.3587 Y-0.4855 Z0.8512
N17640 X-0.3586 Y-0.4835 Z0.8478
N17645 X-0.3585 Y-0.4809 Z0.8448
N17650 X-0.3584 Y-0.478 Z0.8423
N17655 X-0.3583 Y-0.4746 Z0.8402
N17660 X-0.3582 Y-0.471 Z0.8387
N17665 X-0.358 Y-0.4672 Z0.8378
N17670 X-0.3579 Y-0.4633 Z0.8375
N17675 X-0.357 Y-0.4383
N17680 G3 X-0.381 Y-0.4124 I-0.025 J0.0009
N17685 G2 X-0.369 Y-0.0876 I0.006 J0.1624 F25.
N17690 X-0.381 Y-0.4124 I-0.006 J-0.1624
N17695 G3 X-0.4069 Y-0.4364 I-0.0009 J-0.025 F22.
N17700 G1 X-0.4078 Y-0.4614
N17705 X-0.408 Y-0.4653 Z0.8378
N17710 X-0.4081 Y-0.4692 Z0.8387
N17715 X-0.4083 Y-0.4728 Z0.8402
N17720 X-0.4084 Y-0.4761 Z0.8423
N17725 X-0.4085 Y-0.4791 Z0.8448
N17730 X-0.4086 Y-0.4816 Z0.8478
N17735 X-0.4087 Y-0.4837 Z0.8512
N17740 Y-0.4852 Z0.8548
N17745 X-0.4088 Y-0.4861 Z0.8586
N17750 Y-0.4864 Z0.8625
N17755 G0 Z1.605

N17760 M5
N17765 M9
N17770 G53 G0 Z0.
N17775 X-1.5
N17780 G53 G0 Y0.
N17782 #801= 3
N17783 M98 P9004
N17785 M30

%
