
%
O00332 (Lid-0.205) 
(Using high feed G1 F500. instead of G0.) 
(T1 D=0.125 CR=0. - ZMIN=-0.01 - flat end mill) 
(T5 D=0.25 CR=0. TAPER=90deg - ZMIN=0.0925 - spot drill) 
N10 G90 G17 
N15 G20 
N20 G53 G00 Z0. 

(Drill2) 
N25 T1 M06 
N30 S6000 M03 
N35 G54 
N40 G17 G90 
N45 M08 
N50 G01 X-0.375 Y-1.235 F500. 
N55 G00 G43 Z0.855 H01 
N60 T5 
N65 G00 Z0.455 
N70 G01 X-0.383 Y-1.2767 F500. 
N75 G00 Z0.395 
N80 G01 Z0.195 F26.4 
N85 G03 X-0.3866 Y-1.2759 Z0.1334 I0.008 J0.0417 
N90 X-0.3901 Y-1.2747 Z0.0717 I0.0116 J0.0409 
N95 X-0.3935 Y-1.2733 Z0.0101 I0.0151 J0.0397 
N100 X-0.3325 Y-1.235 Z-0.01 I0.0185 J0.0383 
N105 X-0.4175 I-0.0425 J0. 
N110 X-0.3325 I0.0425 J0. 
N115 X-0.375 I-0.0213 J0. 
N120 G00 Z0.455 
N125 G01 X-2.633 Y-0.2917 F500. 
N130 G00 Z0.395 
N135 G01 Z0.195 F26.4 
N140 G03 X-2.6366 Y-0.2909 Z0.1334 I0.008 J0.0417 
N145 X-2.6401 Y-0.2897 Z0.0717 I0.0116 J0.0409 
N150 X-2.6435 Y-0.2883 Z0.0101 I0.0151 J0.0397 
N155 X-2.5825 Y-0.25 Z-0.01 I0.0185 J0.0383 
N160 X-2.6675 I-0.0425 J0. 
N165 X-2.5825 I0.0425 J0. 
N170 X-2.625 I-0.0213 J0. 
N175 G00 Z0.455 
N180 Z0.855 

(2D Pocket2) 
N185 G01 X-0.3251 Y-1.1785 F500. 
N190 G00 Z0.855 
N195 Z0.455 
N200 G01 Z0.355 F26.4 
N205 G03 X-0.32 Y-1.1778 Z0.3422 I0.0108 J-0.0584 
N210 X-0.3148 Y-1.1775 Z0.3293 I0.0057 J-0.0591 
N215 X-0.3096 Y-1.1777 Z0.3165 I0.0005 J-0.0594 
N220 X-0.3045 Y-1.1783 Z0.3036 I-0.0046 J-0.0592 
N225 X-0.2994 Y-1.1794 Z0.2908 I-0.0098 J-0.0586 
N230 X-0.2944 Y-1.1809 Z0.2779 I-0.0149 J-0.0575 
N235 X-0.2896 Y-1.1828 Z0.2651 I-0.0198 J-0.056 
N240 X-0.285 Y-1.1852 Z0.2522 I-0.0246 J-0.054 
N245 X-0.2806 Y-1.1879 Z0.2394 I-0.0292 J-0.0517 
N250 X-0.2765 Y-1.191 Z0.2265 I-0.0336 J-0.0489 
N255 X-0.3172 Y-1.1776 Z0.225 I-0.0378 J-0.0458 
N260 G01 X-0.389 Y-1.1812 
N265 X-0.3904 Y-1.1815 
N270 X-0.3916 Y-1.1823 
N275 X-0.3923 Y-1.1835 
N280 X-0.3925 Y-1.1849 
N285 X-0.3922 Y-1.1863 
N290 X-0.3914 Y-1.1875 
N295 X-0.3902 Y-1.1883 
N300 X-0.3888 Y-1.1886 
N305 X-0.3167 
N310 X-0.315 Y-1.1883 
N315 X-0.3136 Y-1.1876 
N320 X-0.3124 Y-1.1864 
N325 X-0.3117 Y-1.185 
N330 X-0.3114 Y-1.1833 
N335 Y-1.1828 
N340 X-0.3117 Y-1.1811 
N345 X-0.3125 Y-1.1796 
N350 X-0.3137 Y-1.1785 
N355 X-0.3152 Y-1.1777 
N360 X-0.3169 Y-1.1776 
N365 X-0.3172 
N370 G02 X-0.3625 Y-1.1506 I-0.0024 J0.0474 
N375 G03 X-0.4077 Y-1.1236 I-0.0429 J-0.0204 
N380 G01 X-2.7289 Y-1.2396 
N385 X-2.7302 Y-1.24 
N390 X-2.7314 Y-1.2408 
N395 X-2.7321 Y-1.242 
N400 X-2.7324 Y-1.2434 
N405 X-2.7321 Y-1.2448 
N410 X-2.7313 Y-1.246 
N415 X-2.7301 Y-1.2467 
N420 X-2.7287 Y-1.247 
N425 X-0.2658 
N430 G03 X-0.253 Y-1.2342 I0. J0.0128 
N435 G01 Y-1.1285 
N440 G03 X-0.2656 Y-1.1165 I-0.012 J0. 
N445 G01 X-0.4077 Y-1.1236 
N450 G02 X-0.4778 Y-1.0818 I-0.0037 J0.0734 
N455 G03 X-0.5478 Y-1.04 I-0.0664 J-0.0316 
N460 G01 X-2.7781 Y-1.1515 
N465 G03 X-2.8375 Y-1.2139 I0.0031 J-0.0624 
N470 G01 Y-1.275 
N475 G03 X-2.775 Y-1.3375 I0.0625 J0. 
N480 G01 X-0.225 
N485 G03 X-0.1625 Y-1.275 I0. J0.0625 
N490 G01 Y-1.0864 
N495 G03 X-0.2281 Y-1.024 I-0.0625 J0. 
N500 G01 X-0.5478 Y-1.04 
N505 G00 Z0.455 
N510 G01 X-0.3248 Y-0.312 F500. 
N515 Z0.355 F26.4 
N520 G03 X-0.3197 Y-0.3115 Z0.3422 I0.0079 J-0.0588 
N525 X-0.3145 Z0.3293 I0.0027 J-0.0593 
N530 X-0.3093 Y-0.3119 Z0.3165 I-0.0024 J-0.0593 
N535 X-0.3042 Y-0.3128 Z0.3036 I-0.0076 J-0.0589 
N540 X-0.2992 Y-0.3141 Z0.2908 I-0.0127 J-0.058 
N545 X-0.2944 Y-0.3159 Z0.2779 I-0.0177 J-0.0567 
N550 X-0.2897 Y-0.3181 Z0.2651 I-0.0226 J-0.0549 
N555 X-0.2852 Y-0.3207 Z0.2522 I-0.0273 J-0.0527 
N560 X-0.2809 Y-0.3236 Z0.2394 I-0.0318 J-0.0502 
N565 X-0.2769 Y-0.3269 Z0.2265 I-0.036 J-0.0472 
N570 X-0.3169 Y-0.3114 Z0.225 I-0.04 J-0.0439 
N575 G01 X-0.3888 
N580 X-0.3902 Y-0.3117 
N585 X-0.3914 Y-0.3125 
N590 X-0.3922 Y-0.3137 
N595 X-0.3925 Y-0.3151 
N600 X-0.3923 Y-0.3165 
N605 X-0.3916 Y-0.3177 
N610 X-0.3904 Y-0.3185 
N615 X-0.389 Y-0.3188 
N620 X-0.3169 Y-0.3224 
N625 X-0.3152 Y-0.3223 
N630 X-0.3137 Y-0.3215 
N635 X-0.3125 Y-0.3204 
N640 X-0.3117 Y-0.3189 
N645 X-0.3114 Y-0.3172 
N650 Y-0.3167 
N655 X-0.3117 Y-0.315 
N660 X-0.3124 Y-0.3136 
N665 X-0.3136 Y-0.3124 
N670 X-0.315 Y-0.3117 
N675 X-0.3167 Y-0.3114 
N680 X-0.3169 
N685 G02 X-0.3608 Y-0.2822 I0. J0.0475 
N690 G03 X-0.4046 Y-0.253 I-0.0438 J-0.0183 
N695 G01 X-2.7287 
N700 X-2.7301 Y-0.2533 
N705 X-2.7313 Y-0.254 
N710 X-2.7321 Y-0.2552 
N715 X-2.7324 Y-0.2566 
N720 X-2.7321 Y-0.258 
N725 X-2.7314 Y-0.2592 
N730 X-2.7302 Y-0.26 
N735 X-2.7289 Y-0.2604 
N740 X-0.2656 Y-0.3835 
N745 G03 X-0.253 Y-0.3715 I0.0006 J0.012 
N750 G01 Y-0.2658 
N755 G03 X-0.2658 Y-0.253 I-0.0128 J0. 
N760 G01 X-0.4046 
N765 G02 X-0.4725 Y-0.2077 I0. J0.0735 
N770 G03 X-0.5404 Y-0.1625 I-0.0679 J-0.0283 
N775 G01 X-2.775 
N780 G03 X-2.8375 Y-0.225 I0. J-0.0625 
N785 G01 Y-0.2861 
N790 G03 X-2.7781 Y-0.3485 I0.0625 J0. 
N795 G01 X-0.2281 Y-0.476 
N800 G03 X-0.1625 Y-0.4136 I0.0031 J0.0624 
N805 G01 Y-0.225 
N810 G03 X-0.225 Y-0.1625 I-0.0625 J0. 
N815 G01 X-0.5404 
N820 G00 Z0.855 
N825 M09 
N830 M05 
N835 G53 G00 Z0. 

(Drill3) 
N840 M01 
N845 T5 M06 
N850 S4500 M03 
N855 G54 
N860 G17 G90 
N865 M08 
N870 G01 X-0.375 Y-1.235 F500. 
N875 G00 G43 Z0.855 H05 
N880 T1 
N885 G00 Z0.455 
N890 G98 G81 X-0.375 Y-1.235 Z0.0925 R0.425 F10. 
N895 X-2.625 Y-0.25 
N900 G80 
N905 G00 Z0.855 

N910 M05 
N915 M09 
N920 G53 G00 Z0. 
N925 X-1.5 
N930 G53 G00 Y0. 
N932 #801= 3 
N933 M98 P9004 
N935 M30 

%
